!!!!SEGMENT: pl-wn--mus-iii-63-546_wieniawski-henryk--le-carnaval-russe-op-11.krn
!!!cenid: 18xx:3826
!!!COM: Wieniawski, Henryk
!!!COM-rismID: pe137176
!!!CDT: 1835/07/10-1880/03/31
!!!CNT:
!!!OTL: Le Carnaval Russe op. 11
!!!PDT:
!!!AGN:
!!!SMS-siglum: PL-Wn
!!!SMS-shelfmark: Mus.III.63.546
!!!SMS-shelfwork: W
!!!SMS-variant: VIOLON.: PL-Wn Mus.III.63.546:5-14
!!!SMS-altvar: PL-Wn Mus.III.63.546:16-21
!!!NIFC-rismSourceID:
!!!NIFC-rismChildID:
!!!NIFC-islandoraID: none
!!!URL-pdf-islandora:
!!!URL-scan: https://polona.pl/item/le-carnaval-russe-op-11,NjkyOTMwMjA/0 @EN{Scan on Polona} @PL{Skany w portalu Polona}
!!!IIIF: https://polona.pl/iiif/item/NjkyOTMwMjA/manifest.json
!!!ONB-nifc: UWAGA: temat z wariacjami w jednym pliku. Na podstawie partytury (SMS:variant), partia skrzypiec do SMS:altvar
!!!AIN: 1 piano 1 violn
!!!key: G
**kern	**kern	**dynam	**kern	**dynam
!	!	!	!LO:MO:mod=*	!
*	*	*	*scale:70%	*
*part2	*part2	*part2	*part1	*part1
*staff3	*staff2	*	*staff1	*
*I"PIANO.	*I"PIANO.	*	*I"VIOLON.	*
*mI"Fortepiano	*mI"Fortepiano	*	*mI"Violino	*
*I'	*I'	*	*I'	*
*mI'pf	*mI'pf	*	*mI'vn	*
*Ipiano	*Ipiano	*	*Ivioln	*
*ICklav	*ICklav	*	*ICstr	*
*IGacmp	*IGacmp	*	*IGsolo	*
*clefF4	*clefG2	*	*clefG2	*
*k[f#]	*k[f#]	*	*k[f#]	*
*G:	*G:	*	*G:	*
*M2/4	*M2/4	*	*M2/4	*
*xywh-3:68,296,2560,997	*xywh-3:68,296,2560,997	*	*xywh-3:68,296,2560,997	*
=1	=1	=1	=1	=1
!!LO:TX:a:B:t=:mod=Allegro. \nTema.
!	!	!	!LO:TX:a:B:t=Allegro.:mod=	!
!	!	!	!LO:TX:a:B:t=Tema.:mod=	!
4GG 4GGG/	8r	p	2r	.
*	*clefF4	*	*	*
.	4d 4B 4G 4D\	.	.	.
4r	.	.	.	.
.	8d 8B 8G 8D\	.	.	.
=2	=2	=2	=2	=2
4GG 4GGG/	8r	.	4r	.
.	4d 4B 4G 4D\	.	.	.
4r	.	.	8.r	.
.	8d 8B 8G 8D\	.	.	.
!	!	!	!LO:TX:a:i:t=molto fantastico	!
.	.	.	16d/	p <
=3	=3	=3	=3	=3
4GG 4GGG/	8r	.	4g^>/	.
.	4d 4B 4G 4D\	.	.	.
4r	.	.	4b^\	[[
.	8d 8B 8G 8D\	.	.	.
=4	=4	=4	=4	=4
4GG 4GGG/	8r	.	4dd^\	>
.	4d 4B 4G 4D\	.	.	]
4r	.	.	(8b'/L	<
.	8d 8B 8G 8D\	.	8g'/J)	.
=5	=5	=5	=5	=5
!	!LO:TX:t=P:problem:mixed beam	!	!	!
2ryy	8AA<L 8AAA</	.	8f#/L	[
.	8f# 8d 8A\	.	(16f#/L	<
.	.	.	16a/JJ	.
.	8AA< 8AAA</	.	8g/L)	[
.	8eJ 8c#X 8A 8G\	.	(16g/L	<
.	.	.	16e/JJ	[
!!LO:LB:g=original
*xywh-3:72,1253,2508,773	*xywh-3:72,1253,2508,773	*	*xywh-3:72,1253,2508,773	*
=6	=6	=6	=6	=6
4D 4DD/	8d 8F#\	.	4d/)	>
.	(8cnL 8A\	>	.	]
4r	8B 8G\	.	(8e'/L	mf <
.	8AJ 8D\	]	8f#'/J)	.
=7	=7	=7	=7	=7
4GG 4GGG/	8r)	mf	4g^>/	.
.	4d 4B 4G 4D\	.	.	.
4r	.	.	4b^\	[[
.	8d 8B 8G 8D\	.	.	.
=8	=8	=8	=8	=8
4GG 4GGG/	8r	.	4dd^\	>
.	4d 4B 4G 4D\	.	.	]
4r	.	.	(8b'/L	<
.	8d 8B 8G 8D\	.	8g'/J)	.
=9	=9	=9	=9	=9
!	!LO:TX:t=P:problem:mixed beam	!	!	!
.	.	.	(8qg/	.
2ryy	8AA<L 8AAA</	.	((16f#/LL)	.
.	.	.	16e/	.
.	8f# 8d 8A\	.	16f#/)	.
.	.	.	16a`/JJ)	.
.	.	.	(8qa/	.
.	8AA< 8AAA</	.	((16g/LL)	.
.	.	.	16f#/	.
.	8eJ 8c#X 8A 8G\	.	16g/)	.
.	.	.	16e`/JJ)	[
=10	=10	=10	=10	=10
!	!LO:TX:t=P:problem:mixed beam	!	!	!
2ryy	8D<L 8DD</	.	4d/	>
.	8d 8A 8F#\	.	.	]
.	8GG< 8GGG</	p	(8.dd;\L	p <
*	*clefG2	*	*	*
.	8bJ 8g 8d 8B;\	.	.	.
!	!	!	!LO:TX:a:i:t=più vivo	!
.	.	.	16b'\Jk)	.
=11	=11	=11	=11	=11
!	!LO:TX:t=P:problem:mixed beam	!	!	!
!	!LO:TX:a:i:t=più vivo	!	!	!
2ryy	8AA<L 8AAA</	.	8a`/L	.
.	8a 8f# 8d 8A\	.	8f#`/J	.
.	8AA< 8AAA</	.	8g`/L	.
.	8aJ 8g 8c#X 8A\	.	8e`/J	[
=12	=12	=12	=12	=12
!	!LO:TX:t=P:problem:mixed beam	!	!	!
2ryy	8D<L 8DD</	.	8d`/L	>
.	8a 8f# 8d 8A\	.	(8d/J	]
.	8GG< 8GGG</	mf	8dd\L)	mf <
.	8gJ 8d 8B\	.	(16dd\L	.
.	.	.	16b\JJ	.
*	*clefF4	*	*	*
!!LO:LB:g=original
*xywh-3:116,2031,2512,737	*xywh-3:116,2031,2512,737	*	*xywh-3:116,2031,2512,737	*
=13	=13	=13	=13	=13
!	!LO:TX:t=P:problem:mixed beam	!	!	!
2ryy	8AA<L 8AAA</	.	8a/L)	.
.	8f# 8d 8A\	.	(16a/L	.
.	.	.	16f#/JJ	.
.	8AA< 8AAA</	.	8g/L)	.
.	8eJ 8c#X 8A 8G\	.	(16g/L	.
.	.	.	16e/JJ	[
=14	=14	=14	=14	=14
!LO:TX:a:i:t=poco rit.	!	!	!LO:TX:a:i:t=poco rit.	!
8D 8DD/	8d 8F#\	.	4d/)	>
8r	(8dL 8F#\	>	.	]
!!LO:TX:a:B:t=A
4r	8c#X 8A 8G#X\	.	(8e'/L	p <
.	8dJ 8cn 8An\	]	8f#'/J)	.
=15	=15	=15	=15	=15
!	!	!	!LO:TX:a:i:t=a tempo	!
4GG 4GGG/	8r)	p	4g^>/	.
!	!LO:TX:b:i:t=a tempo	!	!	!
.	4d 4B 4G 4D\	.	.	.
4r	.	.	4b^\	[[
.	8d 8B 8G 8D\	.	.	.
=16	=16	=16	=16	=16
4GG 4GGG/	8r	.	4dd^\	>
.	4d 4B 4G 4D\	.	.	]
4r	.	.	(16cc/LL	<
.	.	.	16b/	.
.	8d 8B 8G 8D\	.	16a/	.
.	.	.	16g/JJ)	.
=17	=17	=17	=17	=17
!	!LO:TX:t=P:problem:mixed beam	!	!	!
2ryy	8AA<L 8AAA</	.	8f#'/L	[
.	8f# 8d 8A\	.	(16f#/L	<
.	.	.	16g/JJ	.
.	8AA< 8AAA</	.	8e/L)	[
.	8eJ 8c#X 8G\	.	(16e/L	<
.	.	.	16f#/JJ	[
=18	=18	=18	=18	=18
4D 4DD/	8d 8F#\	.	4d/)	>
*	*clefG2	*	*	*
.	(>8ccnL 8e/	>	.	]
4r	8b 8d/	.	(8e'/L	mf <
.	8aJ 8c/	.	8f#'/J)	.
=19	=19	=19	=19	=19
4GG 4GGG/	8g 8B/)	]	4g^>/	.
*	*clefF4	*	*	*
.	4d 4B 4G\	mf	.	.
4r	.	.	4b^\	[[
.	8d 8B 8G\	.	.	.
!!LO:LB:g=original
*xywh-3:142,2780,2406,803	*xywh-3:142,2780,2406,803	*	*xywh-3:142,2780,2406,803	*
=20	=20	=20	=20	=20
4GG 4GGG/	8r	.	4dd^\	>
.	4d 4B 4G 4D\	.	.	]
4r	.	.	(16cc/LL	<
.	.	.	16b/	.
.	8d 8B 8G 8D\	.	16a/	.
.	.	.	16g/JJ)	.
=21	=21	=21	=21	=21
!	!LO:TX:t=P:problem:mixed beam	!	!	!
2ryy	8AA<L 8AAA</	.	8f#'/L	[
.	8d 8A 8F#\	.	(16f#/L	<
.	.	.	16g/JJ	.
.	8AA< 8AAA</	.	8e/L)	[
.	8eJ 8c#X 8A 8G\	.	(16e/L	<
.	.	.	16f#/JJ	[
=22	=22	=22	=22	=22
!	!LO:TX:t=P:problem:mixed beam	!	!	!
2ryy	8D<L 8DD</	.	4d/)	>
.	8d 8A 8F#\	.	.	]
.	8GG< 8GGG</	p	(8.dd\L	p <
*	*clefG2	*	*	*
.	8bJ 8g 8d 8B\	.	.	.
.	.	.	16b\Jk)	.
=23	=23	=23	=23	=23
!	!LO:TX:t=P:problem:mixed beam	!	!	!
2ryy	8AA<L 8AAA</	.	8a'/L	.
.	8a 8f# 8d 8A\	.	(16f#/L	.
.	.	.	16a/JJ)	.
.	8AA< 8AAA</	.	(16a/LL	.
.	.	.	16a/	.
.	8aJ 8g 8c#X 8A\	.	16g/)	.
.	.	.	16e`/JJ	[
=24	=24	=24	=24	=24
!	!LO:TX:t=P:problem:mixed beam	!	!	!
2ryy	8D<L 8DD</	.	(8f#t/L	>
.	8a 8f# 8d 8A\	.	16d/L)	.
.	.	.	16d`/JJ	]
.	8GG< 8GGG</	.	(16g/LL	<
.	.	.	16a/	.
.	8gJ 8d 8B\	.	16b/)	.
.	.	.	16g`/JJ	.
=25	=25	=25	=25	=25
!	!LO:TX:t=P:problem:mixed beam	!	!	!
!	!LO:TX:b:i:t=poco rit.	!	!LO:TX:a:i:t=poco rit.	!
2ryy	8AA<L 8AAA</	.	(8f#/L	[
*	*clefF4	*	*	*
.	8f# 8d 8A\	.	16d/L)	.
.	.	.	16f#`/JJ	.
.	8AA< 8GGG</	.	(16f#/LL	>
.	.	.	16e/	.
.	8eJ 8A 8G\	.	16d/)	.
.	.	.	16c#X`/JJ	.
=26	=26	=26	=26	=26
4DD 4DDD;/	8d 8F#;\	.	2d;/	]
.	(8cnL 8A\	>	.	.
4r	8B 8G\	.	.	.
.	8AJ 8D\	]	.	.
*	*clefG2	*	*	*
!!LO:PB:g=original
*xywh-4:275,231,2438,847	*xywh-4:275,231,2438,847	*	*xywh-4:275,231,2438,847	*
=27||	=27||	=27||	=27||	=27||
.	.	.	(>(16qqG/LL	.
.	.	.	16qqd/	.
!!LO:TX:a:B:t=:mod=Var.1.
!	!	!	!LO:TX:a:B:t=Var.1.:mod=	!
!!LO:TX:a:B:t=:mod=Variations et Improvisations humoristiques.
!	!	!	!LO:TX:a:B:t=Variations et Improvisations humoristiques.:mod=	!
.	.	.	16qqb/JJ)	.
8D 8GG/	(8g 8B 8G/)	f <	32bb'\LLL)	ff <
.	.	.	(32aa\	.
.	.	.	32gg\	.
.	.	.	32ff#\	.
8r	8r	.	32ee\	.
.	.	.	32dd\	.
.	.	.	32cc\	.
.	.	.	32b\JJJ	.
8d\	8b 8g/	.	32a/LLL	.
.	.	.	32g/	.
.	.	.	32f#/	.
.	.	.	32e/	.
8r	8r	.	32d/	.
.	.	.	32c/	.
.	.	.	32B/	.
.	.	[	32A/JJJ	[[
=28	=28	=28	=28	=28
8G\	8dd 8b 8g\)	>	32G/LLL	>
.	.	]	32B/	]
.	.	.	32A/	<
.	.	.	32c/	.
8r	8r	.	32B/	.
.	.	.	32d/	.
.	.	.	32c/	.
.	.	.	32e/JJJ	.
4r	(>16cc/LL	<	32d/LLL	.
.	.	.	32f#/	.
.	16b/	.	32e/	.
.	.	.	32g/	.
.	16a/	.	32f#/	.
.	.	.	32a/	.
.	16g/JJ	.	32g/	.
.	.	.	32b/JJJ	[[
=29	=29	=29	=29	=29
*	*^	*	*	*
*	*	*xywh-4:275,231,2438,847	*	*	*
8AA/	8f#/L)	8ryy	[	32a^<\LLL)	.
.	.	.	.	(32aa\	<
.	.	.	.	32gg#X\	.
.	.	.	.	32aa\	.
8r	(16f#/L	8d 8A\	<	32bb\	.
.	.	.	.	32aa\	.
.	16g/JJ	.	.	32ff#\	.
.	.	.	.	32dd\JJJ	[
8AA/	8e/L)	8ryy	[	32cc#X^<\LLL	.
.	.	.	.	32aa\	<
.	.	.	.	32ggn\	.
.	.	.	.	32ee\	.
8r	(16e/L	8c#X 8G\	<	32cc#\	.
.	.	.	.	32a\	.
.	16f#/JJ	.	.	32g\	.
.	.	.	[	32e\JJJ	[[
*	*	*xywh-4:275,231,2438,847	*	*	*
*	*v	*v	*	*	*
=30	=30	=30	=30	=30
8DD/L	4d 4F#/)	>	32d^/LLL)	.
!	!	!	!	!LO:HP:t=dim.
.	.	.	(32dd/	>
.	.	.	32cc#X/	.
.	.	.	32dd/	.
8D/J	.	]	32ee/	.
.	.	.	32dd/	.
.	.	.	32ccn/	.
.	.	.	32b/JJJ	.
4r	(8eL 8A/	p <	32a/LLL	.
.	.	.	32g/	.
.	.	.	32f#/	.
.	.	.	32e/	.
.	8f#J 8cn/	.	32d/	.
.	.	.	32c/	.
.	.	.	32B/	.
!	!	!	!	!LO:MO:null:mod=]
.	.	.	32A/JJJ)	.
!!LO:LB:g=original
*xywh-4:333,1113,2374,731	*xywh-4:333,1113,2374,731	*	*xywh-4:333,1113,2374,731	*
=31	=31	=31	=31	=31
.	.	.	(>(16qqG/LL	.
.	.	.	16qqd/	.
.	.	.	16qqb/JJ)	.
8GG/	8g 8B/	.	32bb'\LLL)	fp <
.	.	.	(32aa\	.
.	.	.	32ggM\	.
.	.	.	32ff#\	.
8r	8r	.	32ee\	.
.	.	.	32dd\	.
.	.	.	32ccM\	.
.	.	.	32b\JJJ	.
8d\	8b 8g/	.	32a/LLL	.
.	.	.	32g/	.
.	.	.	32f#m</	.
.	.	.	32e/	.
8r	8r	.	32d/	.
.	.	.	32c/	.
.	.	.	32Bm</	.
.	.	[	32A/JJJ	[[
=32	=32	=32	=32	=32
8G\	8dd 8b 8g\)	>	32G/LLL	>
.	.	]	32B/	]
.	.	.	32A/	<
.	.	.	32c/	.
8r	8r	.	32B/	.
.	.	.	32d/	.
.	.	.	32c/	.
.	.	.	32e/JJJ	.
4r	(>16cc/LL	<	32d/LLL	.
.	.	.	32f#/	.
.	16b/	.	32e/	.
.	.	.	32g/	.
.	16a/	.	32f#/	.
.	.	.	32a/	.
.	16g/JJ	.	32g/	.
.	.	.	32b/JJJ	[[
=33	=33	=33	=33	=33
*	*^	*	*	*
*	*	*xywh-4:333,1113,2374,731	*	*	*
8AA/	8f#/L)	8ry	[	32a^<\LLL)	.
.	.	.	.	(32aa\	<
.	.	.	.	32gg#X\	.
.	.	.	.	32aa\	.
8r	(16f#/L	8d 8A\	<	32bb\	.
.	.	.	.	32aa\	.
.	16g/JJ	.	.	32ff#\	.
.	.	.	.	32dd\JJJ	[
8AA/	8e/L)	8ryy	[	32cc#X^<\LLL	.
.	.	.	.	32aa\	<
.	.	.	.	32ggn\	.
.	.	.	.	32ee\	.
8r	(16e/L	8c#X 8G\	<	32cc#\	.
.	.	.	.	32a\	.
.	16f#/JJ	.	.	32g\	.
.	.	.	[	32e\JJJ	[[
*	*v	*v	*	*	*
*	*	*xywh-4:333,1113,2374,731	*	*
=34	=34	=34	=34	=34
*^	*	*	*	*
8r	4D\	4d/)	>	32d^/LLL)	.
.	.	.	.	(32e/	p
.	.	.	.	32f#/	.
.	.	.	.	32g/	.
8A 8F#/	.	.	]	32a/	.
.	.	.	.	32b/	.
.	.	.	.	32cc#X/	.
.	.	.	.	32dd/JJJ	.
4GG/	4GG/yy	(>8dd/L	p <	32ddd\LLL	.
.	.	.	.	32ccc#X\	.
.	.	.	.	32eee\	.
.	.	.	.	32ddd\	.
.	.	8bJ 8g 8d/	.	32bb\	.
.	.	.	.	32aa#X\	.
.	.	.	.	32ccc#\	.
.	.	.	.	32bb\JJJ	.
*v	*v	*	*	*	*
!!LO:LB:g=original
*xywh-4:264,1868,2426,847	*xywh-4:264,1868,2426,847	*	*xywh-4:264,1868,2426,847	*
=35	=35	=35	=35	=35
4AA/	8a/L	.	32aan/LLL	.
.	.	.	32ff#/	.
.	.	.	32dd/	.
.	.	.	32b/	.
.	8f# 8d 8A/	.	32a/	.
.	.	.	32f#/	.
.	.	.	32d/	.
.	.	.	32B/JJJ	.
4AA/	8g/	.	32A/LLL	.
.	.	.	32B/	.
.	.	.	32c#X/	.
.	.	.	32d/	.
.	8eJ 8c#X 8G/	.	32e/	.
.	.	.	32f#/	.
.	.	.	32g/	.
.	.	[	32a/JJJ)	.
=36	=36	=36	=36	=36
4D\	8d/L	>	(32f#\LLL	>
.	.	.	32d\	.
.	.	.	32f#\	.
.	.	.	32a\	.
.	8AJ 8F#/)	]	32dd\	.
.	.	.	32ff#\	.
.	.	.	32aa\	.
.	.	.	32ddd\JJJ)	]
4GG 4GGG/	(>8dd/L	<	(32ddd\LLL	<
.	.	.	32ccc#X\	.
.	.	.	32eee\	.
.	.	.	32ddd\	.
.	8bJ 8g 8d/	.	32bb\	.
.	.	.	32aa#X\	.
.	.	.	32ccc#\	.
.	.	.	32bb\JJJ	.
=37	=37	=37	=37	=37
!	!LO:TX:a:i:t=poco rit.	!	!LO:TX:a:i:t=poco rit.	!
4AA 4AAA/	8a/L	.	32aan\LLL)	.
.	.	.	(32bb\	.
.	.	.	32ccc#X\	.
.	.	.	32ddd\	.
.	8f# 8d 8A/	.	32ccc#\	.
.	.	.	32ddd\	.
.	.	.	32eee\	.
.	.	.	32fff#\JJJ	.
*	*	*	*8va	*
4AA 4AAA/	8g/	.	32ggg\LLL	.
.	.	.	32fff#\	.
.	.	.	32eee\	.
.	.	.	32fff#\	.
.	8c#XJ 8A 8G/)	.	32ggg\	.
!	!	!LO:MO:mod=.	!	!
.	.	[	32aaa\	.
.	.	.	32bbb\	.
!	!	!LO:MO:null:mod=[[	!	!
.	.	.	32cccc#X\JJJ)	[[
=38	=38	=38	=38	=38
4DD 4DDD/	8d 8F#/	>]	4.dddd;\	>
*	*	*	*X8va	*
.	(>8eL 8cn/	<	.	]
4r	8fn 8d 8B/	.	.	.
.	8f#XJ 8c 8A/	[	16.r	.
!!LO:TX:a:B:t=B
.	.	.	32d/	mf
!!LO:LB:g=original
*xywh-4:287,2750,2374,853	*xywh-4:287,2750,2374,853	*	*xywh-4:287,2750,2374,853	*
=39||	=39||	=39||	=39||	=39||
!!LO:TX:a:B:t=:mod=Var. 2.
!	!	!	!LO:TX:a:B:t=Var. 2.:mod=	!
4D 4GG/	(>4g 4B 4G'>/)	mf <	32g/	sf
.	.	.	(32dLLL 32G/	<
.	.	.	32d 32G#X/	.
.	.	.	32d 32A/	.
.	.	.	32d 32B-X/	.
.	.	.	32d 32Bn/	.
.	.	.	32d 32c/	.
.	.	.	32dJJJ 32c#X/	[[
4d 4B 4G\	4b 4g'>/	.	32d/) 32d	f
.	.	.	(32gLLL 32Gn/	<
.	.	.	32g#X 32G/	.
.	.	.	32a 32G/	.
.	.	.	32b-X 32G/	.
.	.	.	32bn 32G/	.
.	.	.	32ccn 32G/	.
.	.	[	32cc#XJJJ 32G/	[[
=40	=40	=40	=40	=40
4D 4GG/	8dd 8b 8g 8d^/)	f	8dd 8G/)	ff
.	16r	.	16r	.
*	*	*	*8va	*
.	(16ddd 16dd'\	pp	16dddd\	p <
4r	16cccLL 16cc'\	<	16cccc\LL	.
.	16bb 16b'\	.	16bbb\	.
.	16aa 16a'\	.	16aaa\	.
.	16ggJJ 16g'\	.	16ggg\JJ	.
=41	=41	=41	=41	=41
8AA\L	16ff#LL 16f#\	.	32fff#\	[
*	*	*	*X8va	*
.	.	[	32r	.
.	16ddJJ 16a\)	.	16A/	.
*	*	*	*8va	*
8dJ 8A 8F#\	8r	.	(16ffff#\LL	.
.	.	.	16gggg\JJ)	.
8AA\L	(16eeLL 16e\	.	32eeee\	.
*	*	*	*X8va	*
.	.	.	32r	.
!	!LO:TX:a:i:t=rit.	!	!LO:TX:a:i:t=rit.	!
.	16aJJ 16g\)	.	16a/	.
8c#XJ 8A 8G\	8r	.	(16ee\LL	.
.	.	.	16ff#\JJ)	.
=42	=42	=42	=42	=42
4DD/	8ddL 8f# 8d'>/	>	8dd/L	>
.	8dJ 8A 8F#'>/	]	(8d/J	]
!	!LO:TX:a:i:t=a tempo	!	!	!
!	!LO:TX:t=P:problem:mixed beam	!	!LO:TX:a:i:t=a tempo	!
4ryy	8GG<L 8GGG</	f <	16dddLL 16bb\)	f <
.	.	.	32r	.
.	.	.	(32dddK 32bb\	.
.	8bJ 8g 8d 8B\	.	16bb 16gg\)	.
.	.	.	32r	.
.	.	.	(32bbJJk 32gg\	[[
=43	=43	=43	=43	=43
!	!LO:TX:t=P:problem:mixed beam	!	!	!
2ryy	8AA<L 8AAA</	.	8aa 8ff#\)	>]
.	8a 8f# 8d 8A\	.	(16.A/LL	<
.	.	.	32aJJk 32f#'/)	.
.	8AA< 8AAA</	.	(16aLL 16f#`/	.
.	.	.	16g 16e`/)	.
.	8aJ 8g 8c#X 8A\	.	16f# 16d`/	.
.	.	[	16eJJ 16c#X`/	[[
!!LO:PB:g=original
*xywh-5:42,305,2467,793	*xywh-5:42,305,2467,793	*	*xywh-5:42,305,2467,793	*
=44	=44	=44	=44	=44
!	!LO:TX:t=P:problem:mixed beam	!	!	!
2ryy	8D<L 8DD</	>	8f#L 8d/	>
.	8a 8f# 8d 8A\	]	(8d/J	]
.	8GG< 8GGG</	<	16dddLL 16bb\)	<
.	.	.	32r	.
.	.	.	(32dddK 32bb\	.
.	8bJ 8g 8d 8B\	.	16bb 16gg\)	.
.	.	.	32r	.
.	.	.	(32bbJJk 32gg\	[[
=45	=45	=45	=45	=45
!	!LO:TX:t=P:problem:mixed beam	!	!	!
2ryy	8AA<L 8AAA</	.	8aa 8ff#\)	>]
.	8a 8f# 8d 8A\	.	(16.A/LL	<
.	.	.	32aJJk 32f#/)	.
.	8AA< 8AAA</	.	(16aLL 16f#`/	.
.	.	.	16g 16e`/)	.
.	8aJ 8g 8c#X 8A\	.	16f# 16d`/	.
.	.	[	16eJJ 16A`/	[[
=46	=46	=46	=46	=46
2D 2DD/	8d/	>	16d`^</LL	.
.	.	]	16d`/ 16d	mf <
.	(>8ccnL 8e/	<	16d 16cn`/	.
.	.	.	16d`/JJ 16d	.
.	8b 8e#X 8dn/	.	16dLL 16B`/	.
.	.	.	16d`/ 16d	.
.	8aJ 8f# 8c/	.	16d 16A`/	.
.	.	[	16d`/JJ 16d	[[
=47	=47	=47	=47	=47
!!LO:TX:a:B:t=C
4D 4GG/	(>4g 4B'>/)	f <	32g/	sf
.	.	.	(32dLLL 32G/	<
.	.	.	32d 32A-X/	.
.	.	.	32d 32An/	.
.	.	.	32d 32B-X/	.
.	.	.	32d 32Bn/	.
.	.	.	32d 32c/	.
.	.	.	32dJJJ 32c#X/	.
4d 4B 4G\	4b 4g'>/	.	32d/) 32d	[ f
.	.	.	(32gLLL 32G/	<
.	.	.	32a-X 32G/	.
.	.	.	32an 32G/	.
.	.	.	32b-X 32G/	.
.	.	.	32bn 32G/	.
.	.	.	32ccn 32G/	.
.	.	[	32cc#XJJJ 32G/	[[
=48	=48	=48	=48	=48
4D 4GG/	8dd 8b 8g 8d^/)	.	8dd 8G/)	ff
.	16r	.	16r	.
*	*	*	*8va	*
.	(16ddd 16dd'\	pp	16dddd\	p <
4r	16cccLL 16cc'\	<	16cccc\LL	.
.	16bb 16b'\	.	16bbb\	.
.	16aa 16a'\	.	16aaa\	.
.	16ggJJ 16g'\	.	16ggg\JJ	.
=49	=49	=49	=49	=49
8AA\L	16ff#LL 16f#\	.	32fff#`\	[
*	*	*	*X8va	*
.	.	.	32r	.
.	16ddJJ 16a\)	[	16A/	.
*	*	*	*8va	*
8dJ 8A 8F#\	8r	.	(16ffff#\LL	.
.	.	.	16gggg\JJ)	.
8AA\L	(16eeLL 16e\	.	32eeee\	.
*	*	*	*X8va	*
.	.	.	32r	.
!	!LO:TX:a:i:t=rit.	!	!LO:TX:a:i:t=rit.	!
.	16aJJ 16g\)	.	16a/	.
8c#XJ 8A 8G\	8r	.	(16ee\LL	.
.	.	.	16ff#\JJ)	.
!!LO:LB:g=original
*xywh-5:94,1099,2473,799	*xywh-5:94,1099,2473,799	*	*xywh-5:94,1099,2473,799	*
=50	=50	=50	=50	=50
4DD/	8ddL 8f# 8d'>/	>	8dd/L	>
.	8dJ 8A 8F#'>/	]	(8d/J	]
!	!LO:TX:t=P:problem:mixed beam	!	!LO:TX:a:i:t=a tempo	!
!	!LO:TX:a:i:t=a tempo	!	!	!
4ryy	8GG<L 8GGG</	f <	16dddLL 16bb\)	f <
.	.	.	32r	.
.	.	.	(32dddK 32bb\	.
.	8bJ 8g 8d 8B\	.	16bb 16gg\)	.
.	.	.	32r	.
.	.	.	(32bbJJk 32gg\	[[
=51	=51	=51	=51	=51
!	!LO:TX:t=P:problem:mixed beam	!	!	!
2ryy	8AA<L 8AAA</	.	8aa 8ff#\)	>]
.	8a 8f# 8d 8A\	.	(16.A/LL	<
.	.	.	32aJJk 32f#/)	.
.	8AA< 8AAA</	.	(16aLL 16f#`/	.
.	.	.	16g 16e`/)	.
.	8aJ 8g 8c#X 8A\	.	16f# 16d`/	.
.	.	[	16eJJ 16c#X`/	[[
=52	=52	=52	=52	=52
!	!LO:TX:t=P:problem:mixed beam	!	!	!
2ryy	8D<L 8DD</	>	8f#L 8d/	>
.	8a 8f# 8d 8A\	]	(8d/J	]
.	8GG< 8GGG</	<	16dddLL 16bb\)	<
.	.	.	32r	.
.	.	.	(32dddK 32bb\	.
.	8bJ 8g 8d 8B\	.	16bb 16gg\)	.
.	.	.	32r	.
.	.	.	(32bbJJk 32gg\	[[
=53	=53	=53	=53	=53
!	!LO:TX:t=P:problem:mixed beam	!	!	!
2ryy	8AA<L 8AAA</	.	8aa 8ff#\)	>]
.	8a 8f# 8d 8A\	.	(16.A/LL	<
.	.	.	32aJJk 32f#/)	.
.	8AA< 8AAA</	.	(16aLL 16f#`/	.
.	.	.	16g 16e`/)	.
.	8aJ 8g 8c#X 8A\	.	16f# 16d`/	.
.	.	[	16eJJ 16A`/	[[
=54	=54	=54	=54	=54
!	!LO:TX:b:i:t=poco rit. e dim.	!	!	!
4D 4DD/	8d^</	.	16d`^</LL	.
!	!	!	!LO:TX:b:i:t=poco rit. e dim.	!
.	.	.	16d`/ 16d	.
.	(>8ccnL 8e/	.	16d 16cn`/	.
.	.	.	16d`/JJ 16d	.
4r	8b 8e#X 8dn/	.	16dLL 16B`/	.
.	.	.	16d`/ 16d	.
.	8aJ 8f# 8c/	.	16d 16A`/	.
.	.	.	32d`/JJk 32d	.
.	.	.	32r;	.
=55||	=55||	=55||	=55||	=55||
*	*^	*	*	*
!!LO:TX:a:B:t=:mod=Var.3.
!	!	!	!	!LO:TX:a:B:t=Var.3.:mod=	!
*	*	*xywh-5:94,1099,2473,799	*	*	*
8D 8GG/	(4g'/)	8B\	pp <	16g/LL	p
.	.	.	.	(16d/	<
8r	.	8r	.	16b/)	.
.	.	.	.	(16d/	.
8d 8G\	4b'/	8g\	.	16dd/)	.
.	.	.	.	(16d/	.
8r	.	8r	.	16gg/)	.
.	.	.	[	(16d/JJ	[
=56	=56	=56	=56	=56	=56
8D 8GG/	4dd/)	8b 8g\	>	16dd^/LL)	.
.	.	.	]	(16d/	<
8r	.	8r	.	16b/)	.
.	.	.	.	(16d/	.
4r	(>16cc/LL	4ryy	<	16g/)	.
.	16b/	.	.	(16d/	.
.	16a/	.	.	16b/)	.
.	16g/JJ	.	.	(16d/JJ	[
*	*	*xywh-5:94,1099,2473,799	*	*	*
*	*v	*v	*	*	*
!!LO:LB:g=original
*xywh-5:31,1853,2576,862	*xywh-5:31,1853,2576,862	*	*xywh-5:31,1853,2576,862	*
=57	=57	=57	=57	=57
8AA\L	8f#'>/L)	.	16a^<\LL)	.
.	.	[	(16a\	<
8dJ 8A\	(>16f#/L	<	16ff#\)	.
.	16g/JJ	.	(16a\	.
8AA\L	8e'>/L)	[	16gg\)	.
.	.	.	(16a\	.
8c#XJ 8A 8G\	(>16e/L	<	16cc#X\)	.
.	16f#/JJ	[	(16a\JJ	[[
=58	=58	=58	=58	=58
8D\L	8d/)	>	16dd^<\LL)	.
.	.	.	(16d\	<
8dJ 8A 8F#\	8r	]	16ddd\)	.
.	.	.	(16d\	.
8GG\L	8dddL 8bb 8gg 8dd'\	pp <	16b\)	.
.	.	.	(16d\	.
8gJ 8d 8B^^\	8bbJ 8gg 8dd 8b'\	.	16ddd\)	.
.	.	.	(16d\JJ	[[
=59	=59	=59	=59	=59
8AA\L	8aaL 8ff# 8dd 8a'\	.	16a^<\LL)	.
.	.	.	(16a\	<
8dJ 8A 8F#^^<\	8ff# 8dd 8f#'\	.	16aa\)	.
.	.	.	(16a\	.
8AA\L	8gg 8ee 8g'\	.	16g\)	.
.	.	.	(16a\	.
8c#XJ 8A 8G^^<\	8cc#XJ 8a 8g 8e'\	.	16eee\)	.
.	.	[	(16a\JJ	[[
=60	=60	=60	=60	=60
8DD\L	8dd 8f# 8d'>/	>	16f#^<\LL)	.
.	.	.	(16a\	<
8dJ 8A 8F#^^<\	8r	]	16aaa\)	.
.	.	.	(16d\	.
8GG\L	8dddL 8bb 8gg 8dd'\	<	16b\)	.
.	.	.	(16d\	.
8gJ 8d 8B^^<\	8bbJ 8gg 8dd 8b'\	.	16ddd\)	.
.	.	.	(16d\JJ	[[
=61	=61	=61	=61	=61
8AA\L	8aaL 8ff# 8dd 8a'\	.	16a^<\LL)	.
.	.	.	(16a\	<
8dJ 8A 8F#^^<\	8ff# 8dd 8f#'\	.	16aa\)	.
.	.	.	(16a\	.
8AA\L	8gg 8ee 8g'\	.	16g\)	.
.	.	.	(16cc#X\	.
8c#XJ 8A^^<;<\	8cc#XJ 8a 8g 8e';\	.	16aaa;\)	.
.	.	[	(16cc#\JJ	[[
=62	=62	=62	=62	=62
*	*^	*	*	*
*	*	*xywh-5:31,1853,2576,862	*	*	*
2D 2DD/	4.dd/	8f#L 8d^\	.	16dd^/LL)	.
!	!	!	!	!LO:TX:a:i:t=rit.	!
.	.	.	.	(16d/	>
!	!LO:TX:a:i:t=rit.	!	!	!	!
.	.	(>8g 8e\	>	16cc#X/)	.
.	.	.	.	(16d/	.
.	.	8a 8f#\	.	16ccn/)	.
.	.	.	.	(16d/	.
.	8ccn/	8f#J 8d\	.	16a/)	.
.	.	.	]	(16d/JJ	.
=63	=63	=63	=63	=63	=63
!!LO:TX:a:B:t=D
!	!LO:TX:a:i:t=a tempo	!	!	!LO:TX:a:i:t=a tempo	!
8GG/	(4b'/	8g\)	<	16g/LL)	]
.	.	.	.	(16d/	<
8r	.	8r	.	16b/)	.
.	.	.	.	(16d/	.
8B\	4g'/	8d\	.	16dd/)	.
.	.	.	.	(16d/	.
8r	.	8r	.	16gg/)	.
*	*	*xywh-5:31,1853,2576,862	*	*	*
.	.	.	[	(16d/JJ	[[
!!LO:LB:g=original
=64	=64	=64	=64	=64	=64
*xywh-5:100,2675,2501,914	*xywh-5:100,2675,2501,914	*xywh-5:100,2675,2501,914	*xywh-5:100,2675,2501,914	*	*
*	*	*	*	*xywh-5:100,2675,2501,914	*
8G\	4dd/)	8b 8g^<\	.	16dd^/LL)	.
.	.	.	.	(16d/	<
8r	.	8r	.	16b/)	.
.	.	.	.	(16d/	.
4r	(>8b/L	4ryy	<	16g/)	.
.	.	.	.	(16d/	.
.	8g/J	.	.	16b/)	.
.	.	.	.	(16d/JJ	[[
=65	=65	=65	=65	=65	=65
8AA\L	8r)	8f#'\L	[	16a^<\LL)	.
.	.	.	.	(16a\	<
8dJ 8A\	8dd/	(16f#\L	<	16ff#\)	.
.	.	16a\JJ	.	(16a\	.
8AA\L	8r	8g'\L)	[	16gg\)	.
.	.	.	.	(16a\	.
8c#XJ 8A\	8a/	16g\L	<	16cc#X\)	.
.	.	(16e\JJ	[[	(16a\JJ	[[
=66	=66	=66	=66	=66	=66
4D\	8r	4d\)	>	16dd^<\LL)	.
.	.	.	.	(16d\	<
.	8a 8f# 8A/	.	]	16ddd\)	.
.	.	.	.	(16d\	.
8GG\L	8dddL 8bb 8gg 8dd'\	4ryy	pp <	16b\)	.
.	.	.	.	(16d\	.
8gJ 8d 8B^^<\	8bbJ 8gg 8dd 8b'\	.	.	16ddd\)	.
.	.	.	.	(16d\JJ	[[
*	*	*xywh-5:100,2675,2501,914	*	*	*
*	*v	*v	*	*	*
=67	=67	=67	=67	=67
8AA\L	8aaL 8ff# 8dd 8a'\	.	16a^<\LL)	.
.	.	.	(16a\	<
8dJ 8A 8F#^^<\	8ff# 8dd 8f#'\	.	16aa\)	.
.	.	.	(16a\	.
8AA\L	8gg 8ee 8g'\	.	16g\)	.
.	.	.	(16a\	.
8c#XJ 8A 8G^^<\	8cc#XJ 8a 8g 8e'\	.	16eee\)	.
.	.	[	(16a\JJ	[[
=68	=68	=68	=68	=68
8DD\L	8dd 8f# 8d'>/	>	16f#^<\LL)	.
.	.	.	(16a\	<
8dJ 8A 8F#^^<\	8r	]	16aaa\)	.
.	.	.	(16d\	.
8GG\L	8dddL 8bb 8gg 8dd'\	<	16b\)	.
.	.	.	(16d\	.
8gJ 8d 8B^^<\	8bbJ 8gg 8dd 8b'\	.	16ddd\)	.
.	.	.	(16d\JJ	[[
=69	=69	=69	=69	=69
8AA\L	8aaL 8ff# 8dd 8a'\	.	16a^<\LL)	.
.	.	.	(16a\	<
8dJ 8A 8F#^^<\	8ff# 8dd 8f#'\	.	16aa\)	.
.	.	.	(16a\	.
8AA\L	8gg 8ee 8g'\	.	16g\)	.
.	.	.	(16cc#X\	.
8c#XJ 8A^^<\	8cc#XJ 8a 8g 8e'\	.	16aaa\)	.
.	.	[	(16cc#\JJ	[[
=70	=70	=70	=70	=70
8D 8DD/	8dd 8f# 8d'>^/	.	16dd^/LL)	.
!	!	!	!LO:TX:a:i:t=rall.	!
.	.	.	(16d/	<
!	!LO:TX:a:i:t=rall.	!	!	!
8r	8r	.	16cc#X/)	.
.	.	.	(16d/	.
4r	4r	.	16ccn/)	.
.	.	.	((16d/	.
.	.	.	16a/)	.
.	.	.	16d/JJ)	[[
!!LO:PB:g=original
*xywh-6:289,213,2431,843	*xywh-6:289,213,2431,843	*	*xywh-6:289,213,2431,843	*
=71||	=71||	=71||	=71||	=71||
!!LO:TX:a:B:t=:mod=Var.4.
!	!	!	!LO:TX:a:B:t=Var.4:mod=	!
.	.	.	(16qqG/LL	.
.	.	.	16qqd/	.
.	.	.	16qqb/	.
!	!LO:TX:a:i:t=a tempo	!	!LO:TX:a:i:t=a tempo	!
.	.	.	16qqbb/JJ	.
4G 4GG/	(4g 4d 4B'>/	mf <	32bbb`\LLL)	ff
.	.	.	32bbb`\	.
.	.	.	32aaa`\	.
.	.	.	32aaa`\	.
.	.	.	32ggg`\	.
.	.	.	32ggg`\	.
.	.	.	32fff#`\	.
.	.	.	32fff#`\JJJ	.
4B\	4dd 4g'\	.	32eee`\LLL	.
.	.	.	32eee`\	.
.	.	.	32ddd`\	.
.	.	.	32ddd`\	.
.	.	.	32ccc`\	.
.	.	.	32ccc`\	.
.	.	.	32bb`\	.
.	.	[	32bb`\JJJ	.
=72	=72	=72	=72	=72
4g 4d 4G\	4gg 4b^<\)	.	32aa\LLL	.
.	.	.	32aa\	.
.	.	.	32gg\	.
.	.	.	32gg\	.
.	.	.	32ff#\	.
.	.	.	32ff#\	.
.	.	.	32ee\	.
.	.	.	32ee\JJJ	.
4r	4r	.	32dd\LLL	<
.	.	.	32dd\	.
.	.	.	32cc#X\	.
.	.	.	32cc#\	.
.	.	.	32ccn\	.
.	.	.	32cc\	.
.	.	.	32b\	.
.	.	.	32b\JJJ	[[
=73	=73	=73	=73	=73
!	!LO:TX:t=P:problem:mixed beam	!	!	!
2ryy	(8AA<L 8AAA</	<	32a/LLL	>
.	.	.	32a/	]
.	.	.	32g#X/	<
.	.	.	32g#/	.
.	8a 8f# 8d 8A\	.	32gn/	.
.	.	.	32g/	.
.	.	.	32f#/	.
.	.	.	32f#/JJJ	[
.	8AA< 8AAA</	.	32g/LLL	>
.	.	.	32g/	]
.	.	.	32e/	<
.	.	.	32e/	.
.	8aJ 8g 8c#X 8A\	.	32c#X/	.
.	.	.	32c#/	.
.	.	.	32A/	.
.	.	[	32A/JJJ	[
=74	=74	=74	=74	=74
!	!LO:TX:t=P:problem:mixed beam	!	!	!
4ryy	8D<L 8D<D/	>	32d/LLL	>
.	.	.	32d/	.
.	.	.	32f#/	.
.	.	.	32f#/	.
.	8aJ 8f# 8d 8A\)	.	32a/	.
.	.	]	32a/	.
.	.	.	32dd/	.
.	.	.	32dd/JJJ	]
4GG 4GGG/	(>8d/L	<	32b\LLL	<
.	.	.	32b\	.
.	.	.	32cc#X\	.
.	.	.	32cc#\	.
.	8gJ 8d 8B/	.	32dd\	.
.	.	.	32dd\	.
.	.	.	32b\	.
.	.	.	32b\JJJ	.
!!LO:LB:g=original
*xywh-6:306,1016,2431,877	*xywh-6:306,1016,2431,877	*	*xywh-6:306,1016,2431,877	*
=75	=75	=75	=75	=75
*	*^	*	*	*
*	*	*xywh-6:306,1016,2431,877	*	*	*
4AA 4AAA/	8r	4A\	.	32a\LLL	.
.	.	.	.	32a\	.
.	.	.	.	32dd\	.
.	.	.	.	32dd\	.
.	8f# 8d/	.	.	32ff#\	.
.	.	.	.	32ff#\	.
.	.	.	.	32aa\	.
.	.	.	.	32aa\JJJ	.
4AA 4AAA/	8r	4g\	.	32bb\LLL	.
.	.	.	.	32bb\	.
.	.	.	.	32ccc#X\	.
.	.	.	.	32ccc#\	.
.	8a 8e 8c#X 8A/	.	.	32ddd\	.
.	.	.	.	32ddd\	.
.	.	.	.	32eee\	.
.	.	.	[	32eee\JJJ	[[
*	*	*xywh-6:306,1016,2431,877	*	*	*
*	*v	*v	*	*	*
=76	=76	=76	=76	=76
*	*	*	*8va	*
*	*^	*	*	*
*	*	*xywh-6:306,1016,2431,877	*	*	*
4D 4DD/	8r	4f#\	>	32fff#\LLL	>
.	.	.	.	32fff#\	.
.	.	.	.	32ggg\	.
.	.	.	.	32ggg\	.
.	8a 8d 8A/)	.	]	32ggg#X\	.
.	.	.	.	32ggg#\	.
.	.	.	.	32aaa\	.
.	.	.	.	32aaa\JJJ	]
4GG 4GGG/	(>8d/L	4ryy	<	32bbb\LLL	<
.	.	.	.	32bbb\	.
.	.	.	.	32cccc#X\	.
.	.	.	.	32cccc#\	.
.	8gJ 8d 8B/	.	.	32dddd\	.
.	.	.	.	32dddd\	.
.	.	.	.	32bbb\	.
.	.	.	.	32bbb\JJJ	[[
=77	=77	=77	=77	=77	=77
4AA 4AAA/	8r	4A\	.	32aaa^<\	.
.	.	.	.	32aaa\LLL	<
.	.	.	.	32bbb\	.
.	.	.	.	32bbb\	.
.	8a 8f# 8d/	.	.	32cccc#X\	.
.	.	.	.	32cccc#\	.
.	.	.	.	32dddd\	.
.	.	.	.	32dddd\JJJ	.
4AA 4AAA/	8r	4A\	.	32eeee\LLL	.
.	.	.	.	32eeee\	.
.	.	.	.	32ffff#\	.
.	.	.	.	32ffff#\J	.
.	8a 8g 8e 8c#X/	.	[	(16.gggg;\	.
*	*	*	*	*X8va	*
.	.	.	.	32cc#X\JJk)	[[
*	*	*xywh-6:306,1016,2431,877	*	*	*
*	*v	*v	*	*	*
=78	=78	=78	=78	=78
4DD 4DDD/	8dd 8f# 8d^</)	.	2dd;\	>]
.	(>8ccnL 8e/	>	.	.
4r	8b 8d/	.	.	.
.	8aJ 8c/	]	.	.
=79	=79	=79	=79	=79
!!LO:TX:a:B:t=E
!	!	!	!LO:TX:a:i:t=più vivo	!
4D 4GG/	(4g 4B'>/)	p <	32bbb`\LLL	p
.	.	.	(32bbb'\	.
.	.	.	32aaa'\	.
.	.	.	32aaa'\	.
.	.	.	32ggg'\	.
.	.	.	32ggg'\	.
.	.	.	32fff#'\	.
.	.	.	32fff#'\JJJ	.
4r	4b'\	.	32eee'\LLL	.
.	.	.	32eee'\	.
.	.	.	32ddd'\	.
.	.	.	32ddd'\	.
.	.	.	32cccn'\	.
.	.	.	32ccc'\	.
.	.	.	32bb'\	.
.	.	[	32bb'\JJJ	.
!!LO:LB:g=original
*xywh-6:307,1855,2414,779	*xywh-6:307,1855,2414,779	*	*xywh-6:307,1855,2414,779	*
=80	=80	=80	=80	=80
4B 4G\	4dd 4b 4g 4d^</)	.	32aa'\LLL	.
.	.	.	32aa'\	.
.	.	.	32gg'\	.
.	.	.	32gg'\	.
.	.	.	32ff#'\	.
.	.	.	32ff#'\	.
.	.	.	32ee'\	.
.	.	.	32ee'\JJJ	.
4r	(>8b/L	<	32dd'\LLL	<
.	.	.	32dd'\	.
.	.	.	32cc#X'\	.
.	.	.	32cc#'\	.
.	8g/J	.	32ccn'\	.
.	.	.	32cc'\	.
.	.	.	32b'\	.
.	.	.	32b'\JJJ	[[
=81	=81	=81	=81	=81
8AA\L	8f#/L)	[	32a'/LLL	>
.	.	.	32a'/	]
.	.	.	32g#X'/	<
.	.	.	32g#'/	.
8dJ 8A\	(>16f#/L	<	32gn'/	.
.	.	.	32g'/	.
.	16a/JJ	.	32f#'/	.
.	.	.	32f#'/JJJ	[
8AA\L	8g/L)	[	32g'/LLL	>
.	.	.	32g'/	]
.	.	.	32e'/	<
.	.	.	32e'/	.
8AJ 8G\	(>16gL 16c#X/	<	32c#X'/	.
.	.	.	32c#'/	.
.	16e/JJ	.	32A'/	.
.	.	[	32A'/JJJ	[[
=82	=82	=82	=82	=82
8D\L	4d/)	>	32d'/LLL)	>
.	.	.	(32d'/	.
.	.	.	32f#'/	.
.	.	.	32f#'/	.
8AJ 8F#\	.	]	32a'/	.
.	.	.	32a'/	.
.	.	.	32dd'/	.
.	.	.	32dd'/JJJ	]
4GG/	(>8dd/L	<	32b'\LLL	<
.	.	.	32b'\	.
.	.	.	32cc#X'\	.
.	.	.	32cc#'\	.
.	8bJ 8g 8d/	.	32dd'\	.
.	.	.	32dd'\	.
.	.	.	32b'\	.
.	.	.	32b'\JJJ	.
=83	=83	=83	=83	=83
4AA/	8a/L	.	32a'\LLL	.
.	.	.	32a'\	.
.	.	.	32dd'\	.
.	.	.	32dd'\	.
.	8f# 8d 8A/	.	32ff#'\	.
.	.	.	32ff#'\	.
.	.	.	32aa'\	.
.	.	.	32aa'\JJJ	.
.	(8qa/	.	.	.
4AA/	8g/)	.	32bb'\LLL	.
.	.	.	32bb'\	.
.	.	.	32ccc#X'\	.
.	.	.	32ccc#'\	.
.	8c#XJ 8A 8G/	.	32ddd'\	.
.	.	.	32ddd'\	.
.	.	.	32eee'\	.
.	.	[	32eee'\JJJ	[[
!!LO:LB:g=original
*xywh-6:324,2618,2408,986	*xywh-6:324,2618,2408,986	*	*xywh-6:324,2618,2408,986	*
=84	=84	=84	=84	=84
*	*	*	*8va	*
4DD/	8d/L	>	32fff#'\LLL	>
.	.	.	32fff#'\	.
.	.	.	32ggg'\	.
.	.	.	32ggg'\	.
.	8AJ 8F#/)	]	32ggg#X'\	.
.	.	.	32ggg#'\	.
.	.	.	32aaa'\	.
.	.	.	32aaa'\JJJ	]
4GG#X 4GGG#X/	(8dd/L	<	32bbb'\LLL	<
.	.	.	32bbb'\	.
.	.	.	32cccc#X'\	.
.	.	.	32cccc#'\	.
.	8bJ 8fn 8d/	.	32dddd'\	.
.	.	.	32dddd'\	.
.	.	.	32bbb'\	.
.	.	.	32bbb'\JJJ	[[
=85	=85	=85	=85	=85
4AA 4AAA/	8a/L	.	16aaa'^<\LL)	.
.	.	.	(32bbb'\L	<
.	.	.	32bbb'\	.
.	8f#X 8d 8A/	.	32cccc#X'\	.
.	.	.	32cccc#'\	.
.	.	.	32dddd'\	.
.	.	.	32dddd'\JJJ	.
.	(8qa/	.	.	.
4AA 4AAA/	8gn/)	.	32eeee'\LLL	.
.	.	.	32eeee'\	.
.	.	.	32ffff#'\	.
.	.	.	32ffff#'\J	.
*	*clefF4	*	*	*
.	8c#XJ 8A 8G/	.	(16.gggg;\	.
.	.	[	32cccc#X\JJk))	[[
=86	=86	=86	=86	=86
2DD 2DDD/	8d 8F#^<\)	.	2dddd;\	>
*	*	*	*X8va	*
.	(8cnL 8A\	<	.	.
.	8B 8G\	.	.	.
.	8AJ 8D\	[	.	]
*	*clefG2	*	*	*
=87||	=87||	=87||	=87||	=87||
!!LO:TX:a:B:t=:mod=Var.5.
!	!	!	!LO:TX:a:B:t=Var.5.:mod=	!
8G 8D 8GG/	8g 8d 8B`>/)	f <	16bb\LL	<
.	.	.	16gg\	.
8r	8r	.	16dd\	.
.	.	.	16b\JJ	.
8B 8G 8D\	8b 8g 8d`>/	.	16g/LL	.
.	.	.	16d/	.
8r	8r	.	16B/	.
.	.	[	16G/JJ	[[
=88	=88	=88	=88	=88
8d 8B 8G\	8dd 8b 8g`^<\	.	16ddd\LL	>
.	.	.	16bb\	.
8r	8r	.	16gg\	.
.	.	.	16dd\JJ	]
4r	(>16cc/LL	<	16b/LL	<
.	16b/	.	16g/	.
.	16a/	.	16d/	.
.	16g/JJ	.	16G/JJ	.
=89	=89	=89	=89	=89
*	*^	*	*	*
*	*	*xywh-6:324,2618,2408,986	*	*	*
8AA\L	8r)	8f#\L	[	16aa\LL	.
.	.	.	.	16ff#\	.
8dJ 8A\	8dd/	(16f#\L	<	16dd\	.
.	.	16g\JJ	.	16a\JJ	.
8AA\L	8r	8e\L)	[	16gg\LL	.
.	.	.	.	16ee\	.
8c#XJ 8A 8G\	8a/	(16e\L	<	16cc#X\	.
.	.	16f#\JJ	[	16a\JJ	[[
*	*	*xywh-6:324,2618,2408,986	*	*	*
*	*v	*v	*	*	*
!!LO:PB:g=original
*xywh-7:56,259,2505,795	*xywh-7:56,259,2505,795	*	*xywh-7:56,259,2505,795	*
=90	=90	=90	=90	=90
8D\L	8d/)	>	16dd/LL	>
.	.	.	16a/	.
8dJ 8A 8F#\	8r	]	16f#/	.
.	.	.	16d/JJ	]
8GG\L	8dddL 8bb 8gg 8dd'\	<	16ddd\LL	<
.	.	.	16bb\	.
8gJ 8d 8B\	8bbJ 8gg 8dd 8b'\	.	16gg\	.
.	.	.	16dd\JJ	.
=91	=91	=91	=91	=91
8AA\L	8aaL 8ff# 8dd 8a'\	.	16aa\LL	.
.	.	.	16ff#\	.
8dJ 8A 8F#\	8ff# 8dd 8f#'\	.	16dd\	.
.	.	.	16a\JJ	.
8AA\L	8gg 8ee 8g'\	.	16gg\LL	.
.	.	.	16ee\	.
8c#XJ 8A 8G\	8cc#XJ 8a 8g 8e'\	.	16cc#X\	.
.	.	[	16a\JJ	[[
=92	=92	=92	=92	=92
8DD\L	8dd 8f# 8d'>/	>	16dd/LL	>
.	.	.	16a/	.
8dJ 8A 8F#\	8r	]	16f#/	.
.	.	.	16d/JJ	]
8GG\L	8dddL 8bb 8gg 8dd'\	<	16ddd\LL	<
.	.	.	16bb\	.
8gJ 8d 8B\	8bbJ 8gg 8dd 8b'\	.	16gg\	.
.	.	.	16dd\JJ	.
=93	=93	=93	=93	=93
8AA\L	8aaL 8ff# 8dd 8a'\	.	16aa\LL	.
.	.	.	16ff#\	.
8dJ 8A\	8ff# 8dd 8f#'\	.	16dd\	.
.	.	.	16a\JJ	.
8AA\L	8gg 8ee 8g'\	.	16gg\LL	.
.	.	.	16ee\	.
8c#XJ 8A\	8cc#XJ 8a 8g 8e'\	.	16cc#X\	.
.	.	[	16a\JJ	[[
=94	=94	=94	=94	=94
8D 8DD/	8dd 8f# 8d'>/	>	(16d/LL	>
.	.	.	16dd/)	]
8r	8r	]	16ccn/	.
.	.	.	16a/JJ	.
4r	8e'/L	<	16f#/LL	.
.	.	.	16d/	.
.	8f#'/J	.	16c/	.
.	.	.	16A/JJ	.
=95	=95	=95	=95	=95
!!LO:TX:a:B:t=F
!	!LO:TX:a:i:t=poco più lento	!	!LO:TX:a:i:t=poco più lento	!
8G: 8D: 8GG:/	8g: 8d: 8B`>:/	.	(32bb^\LLL	<
.	.	.	32aa\)	.
.	.	.	32gg\	.
.	.	.	32ff#\	.
8r	8r	.	32ee\	.
.	.	.	32dd^\	.
.	.	.	32cc\	.
.	.	.	32b\JJJ	.
8G: 8D: 8GG:/	8b: 8g: 8d: 8B`>:/	.	32a/LLL	.
.	.	.	32g^/	.
.	.	.	32f#/	.
.	.	.	32e/	.
8r	8r	.	32d/	.
.	.	.	32c^/	.
.	.	.	32B/	.
.	.	[	32A/JJJ	[[
=96	=96	=96	=96	=96
.	.	.	(>8qd 8qG/	.
8d: 8B: 8G:\	8dd: 8b: 8g`:\	>	16dddLL 16dd\)	>
.	.	.	16bb\	.
8r	8r	]	16gg\	.
.	.	.	16dd\JJ	]
4r	(16cccLL 16cc'\	<	16b/LL	<
.	16bb 16b'\	.	16g/	.
.	16aa 16a'\	.	16d/	.
.	16ggJJ 16g'\	.	16G/JJ	.
!!LO:LB:g=original
*xywh-7:50,1066,2511,845	*xywh-7:50,1066,2511,845	*	*xywh-7:50,1066,2511,845	*
=97	=97	=97	=97	=97
8AA\L	8ff#L 8f#\)	.	16aa\LL	.
.	.	[	16ff#\	.
8dJ 8A\	(16ddL 16a\	<	16dd\	.
.	16ggJJ 16g\	.	16a\JJ	.
8AA\L	8eeL 8e\)	.	16gg\LL	.
.	.	[	16ee\	.
8c#XJ 8A 8G\	(16aL 16g\	<	16cc#X\	.
.	16ff#JJ 16f#\	[[	16a\JJ	[
=98	=98	=98	=98	=98
8DD\L	8ddL 8d'>/	>	16dd/LL	>
.	.	.	16a/	.
8dJ 8A 8F#\	8aJ 8f# 8d'>/)	]	16f#/	.
.	.	.	16d/JJ	]
8GG\L	8dddL 8bb 8gg 8dd`\	<	16ddd\LL	<
.	.	.	16bb\	.
8gJ 8d 8B\	(8bbJ 8gg 8dd 8b\	.	16gg\	.
.	.	.	16dd\JJ	.
=99	=99	=99	=99	=99
8AA\L	8aaL 8ff# 8dd 8a`\)	.	16aa\LL	.
.	.	.	16ff#\	.
8dJ 8A 8F#\	(8ff# 8dd 8f#\	.	16dd\	.
.	.	.	16a\JJ	.
8AA\L	8gg 8ee 8g`\)	.	16gg\LL	.
.	.	.	16ee\	.
8c#XJ 8A 8G\	(8cc#XJ 8a 8g 8e\	.	16cc#X\	.
.	.	[	16a\JJ	[[
=100	=100	=100	=100	=100
8D\L	8ddL 8d`>/	>	16dd/LL	>
.	.	.	16a/	.
8dJ 8A 8F#\	8aJ 8f#'>/)	]	16f#/	.
.	.	.	16d/JJ	]
8GG\L	8dddL 8bb 8gg 8dd'\	<	16ddd\LL	<
.	.	.	16bb\	.
8gJ 8d 8B\	8bbJ 8gg 8dd 8b'\	.	16gg\	.
.	.	.	16dd\JJ	.
=101	=101	=101	=101	=101
8AA\L	8aaL 8ff# 8dd 8a'\	.	16aa\LL	.
.	.	.	16ff#\	.
8dJ 8A 8F#\	8ff# 8dd 8f#'\	.	16dd\	.
.	.	.	16a\JJ	.
8AA\L	8gg 8ee 8g'\	.	16gg\LL	.
.	.	.	16ee\	.
8AJ 8E\	8cc#XJ 8g'\	.	16cc#X\	.
.	.	[	16a\JJ	[[
=102	=102	=102	=102	=102
4A 4D\	4dd 4f#/	>	(16d/LL	>
.	.	]	16dd/)	]
.	.	.	16ccn/	.
.	.	.	16a/JJ	.
4r	4r	.	16f#/LL	.
.	.	.	16d/	.
.	.	.	16c/	.
.	.	.	16A/JJ	.
=103||	=103||	=103||	=103||	=103||
!!LO:TX:a:B:t=:mod=Var.6.
!	!	!	!LO:TX:a:B:t=Var.6.:mod=	!
16DLL 16GG/	16gLL 16B 16G/	<	16G/	.
16DJJ 16GG/	16gJJ 16B 16G/	.	16r	.
!	!	!	!LO:TX:a:i:t=capriccioso	!
8r	8r	.	(32g\LLL	<
.	.	.	32bb\)	.
.	.	.	(32a\	.
.	.	.	32ccc\JJJ)	.
16dLL 16E\	16ddLL 16b 16g\	.	(32b\LLL	.
.	.	.	32ddd\JJJ)	.
16dJJ 16E\	16ddJJ 16b 16g\	.	16r	.
8r	8r	.	32gg\LLL	.
.	.	.	32bbb\	.
.	.	.	32aa\	.
.	.	[	32cccc\JJJ	[[
*clefG2	*	*	*	*
!!LO:LB:g=original
*xywh-7:81,1912,2543,795	*xywh-7:81,1912,2543,795	*	*xywh-7:81,1912,2543,795	*
=104	=104	=104	=104	=104
16ddLL 16g\	16gggLL 16bb 16gg\	>	(32bb\LLL	>
.	.	.	32dddd\JJJ)	.
16ddJJ 16g\	16gggJJ 16bb 16gg\	]	16r	]
8r	8r	.	8ddd 8bb\	<
!	!	!	!LO:TX:a:t=P:problem:3 zamiast 6 nad triolą	!
4r	4r	.	24cccLL 24aa`/	.
.	.	.	(24G'/	.
.	.	.	24bb 24gg'/)	.
*	*	*	*Xtuplet	*
.	.	.	24aa 24ff#`/	.
.	.	.	(24G'/	.
.	.	.	24ggJJ 24ee'/)	[[
*clefF4	*	*	*	*
=105	=105	=105	=105	=105
16AALL 16AAA/	16aLL 16f# 16d 16A/	>	16ff# 16dd\	>
16AAJJ 16AAA/	16aJJ 16f# 16d 16A/	]	16r	]
8r	8r	.	(32dd\LLL	<
.	.	.	32fff#\)	.
.	.	.	(32ee\	.
.	.	.	32ggg\JJJ)	[
16eLL 16A\	16aaLL 16cc#X 16a 16g\	<	32cc#X\LLL	>
.	.	.	32eee\JJJ	.
16eJJ 16A\	16aaJJ 16cc# 16a 16g\	[	16r	]
*	*	*	*8va	*
8r	8r	.	(32aaa\LLL	<
.	.	.	32eeee\)	.
.	.	.	(32aaa\	.
.	.	.	32ffff#\JJJ)	[[
=106	=106	=106	=106	=106
4f# 4d\	4dd 4a\	.	(32ddd\LLL	>
.	.	.	32dddd\JJJ)	.
.	.	.	16r	]
*	*	*	*X8va	*
.	.	.	8r	.
!	!LO:TX:t=P:problem:mixed beam	!	!	!
4ryy	8GG<L 8GGG</	<	16dddLL 16bb/	<
.	.	.	16G/	.
.	8bJ 8g 8d 8B\	.	16bb 16gg/	.
.	.	.	16G/JJ	.
=107	=107	=107	=107	=107
!	!LO:TX:t=P:problem:mixed beam	!	!	!
2ryy	8AA<L 8AAA</	.	16aaLL 16ff#/	.
.	.	.	16A/	.
.	8a 8f# 8d 8A\	.	16ff# 16dd/	.
.	.	.	16A/JJ	.
.	8AA< 8AAA</	.	16ggLL 16ee/	.
.	.	.	16A/	.
.	8aJ 8g 8c#X 8A\	.	16ee 16cc#X/	.
.	.	[	16A/JJ	[[
=108	=108	=108	=108	=108
!	!LO:TX:t=P:problem:mixed beam	!	!	!
2ryy	8D<L 8DD</	>	(16ff#LL 16dd/	>
.	.	.	16d/)	.
.	8a 8f# 8d 8A\	.	16d/	.
.	.	]	16ff#JJ 16dd/	.
.	8GG< 8GGG</	<	16G/LL	] <
.	.	.	16ddd 16bb/	.
.	8bJ 8g 8d 8B\	.	16G/	.
.	.	.	16bbJJ 16gg/	.
=109	=109	=109	=109	=109
!	!LO:TX:t=P:problem:mixed beam	!	!	!
2ryy	8AA<L 8AAA</	.	16A/LL	.
.	.	.	16aa 16ff#/	.
.	8a 8f# 8d 8A\	.	16A/	.
.	.	.	16ff#JJ 16dd/	.
.	8AA< 8AAA</	.	16A/LL	.
.	.	.	16gg 16ee/	.
.	8aJ 8g 8c#X 8A\	.	16A/	.
.	.	[	16eeJJ 16cc#X/	[[
=110	=110	=110	=110	=110
2D 2DD/	8d/	>	16ddLL 16d\	>
.	.	]	16dd 16d\	.
.	(>8ccnL 8e/	>	16dd 16d\	]
.	.	.	16cccnJJ 16cc\	>
.	8b 8e 8d#X/	.	16ddLL 16d\	.
.	.	.	16bbJJ 16dd\	.
.	16aJk 16f# 16c/	.	16ccLL 16d\	.
.	16r;	]	32aaJJk 32cc\	.
.	.	.	32r;	]
!!LO:LB:g=original
*xywh-7:94,2701,2555,845	*xywh-7:94,2701,2555,845	*	*xywh-7:94,2701,2555,845	*
=111||	=111||	=111||	=111||	=111||
!!LO:TX:a:B:t=:mod=Tempo di Tema.
!	!	!	!LO:TX:a:B:t=Tempo di Tema.:mod=	!
!!LO:TX:a:B:t=:mod=Var.7.
!	!	!	!LO:TX:a:B:t=Var.7.:mod=	!
4GG 4GGG/	8r)	p	4g^>/	mp <
*	*clefF4	*	*	*
.	4d 4B 4G 4D\	.	.	.
4r	.	.	4b^\	.
.	8d 8B 8G 8D\	.	.	[
=112	=112	=112	=112	=112
4GG 4GGG/	8r	.	4dd^\	>
.	4d 4B 4G 4D\	.	.	]
4r	.	.	(8b'/L	<
.	8d 8B 8G 8D\	.	8g'/J)	.
=113	=113	=113	=113	=113
!	!LO:TX:t=P:problem:mixed beam	!	!	!
2ryy	8AA<L 8AAA</	.	8f#'/L	[
.	8f# 8d 8A\	.	(16f#/L	<
.	.	.	16a/JJ	.
.	8AA< 8AAA</	.	8g/L)	[
.	8eJ 8c#X 8A 8G\	.	(16g/L	<
.	.	.	16e/JJ	[[
=114	=114	=114	=114	=114
4DD/	8d 8F#\	.	4d/)	>
.	(8cnL 8A\	>	.	]
4r	8B 8G\	.	(8e'/L	mf <
.	8AJ 8D\	]]	8f#'/J)	.
=115	=115	=115	=115	=115
4GG/	8r)	mf	4g^>/	.
.	4d 4B 4G 4D\	.	.	.
4r	.	.	4b^\	[[
.	8d 8B 8G 8D\	.	.	.
=116	=116	=116	=116	=116
4GG/	8r	.	4dd^\	>
.	4d 4B 4G 4D\	.	.	]
4r	.	.	(8b'/L	<
.	8d 8B 8G 8D\	.	8g'/J)	.
=117	=117	=117	=117	=117
!	!LO:TX:t=P:problem:mixed beam	!	!	!
.	.	.	(8qg/	.
2ryy	8AA</L	.	((16f#/LL)	.
.	.	.	16e/	.
.	8f# 8d 8A\	.	16f#/)	.
.	.	.	16a'/JJ)	.
.	.	.	(8qa/	.
.	8AA</	.	((16g/LL)	.
.	.	.	16f#/	.
.	8eJ 8c#X 8A 8G\	.	16g/)	.
.	.	.	16e'/JJ)	[[
=118	=118	=118	=118	=118
!	!LO:TX:t=P:problem:mixed beam	!	!	!
2ryy	8BB</L	.	4d/	>
.	8d 8A 8F#\	.	.	]
.	8GG</	mf	(8.dd;\L	f <
*	*clefG2	*	*	*
.	8bJ 8g 8d 8B;\	.	.	.
!	!	!	!LO:TX:a:i:t=più:mod=	!
.	.	.	16b\Jk)	.
!!LO:PB:g=original
*xywh-8:271,239,2447,862	*xywh-8:271,239,2447,862	*	*xywh-8:271,239,2447,862	*
=119	=119	=119	=119	=119
!	!LO:TX:t=P:problem:mixed beam	!	!LO:MO:mod=!LO&colon;TX&colon;i&colon;t=piu vivo	!
!	!LO:TX:b:i:t=più vivo	!	!LO:TX:a:i:t=vivo:mod=	!
2ryy	8AA</L	.	8a'/L	.
.	8a 8f# 8d 8A\	.	8f#'/J	.
.	8AA</	.	8g'/L	.
.	8aJ 8g 8c#X 8A\	.	8e'/J	[
=120	=120	=120	=120	=120
!	!LO:TX:t=P:problem:mixed beam	!	!	!
2ryy	8D</L	.	8d'/L	>
.	8a 8f# 8d 8A\	.	8d'/J	]
!	!	!LO:DY:t=più f	!	!LO:DY:t=più f
.	8GG</	f	(8.dd\L	f
.	8aJ 8d 8B\	.	.	<
.	.	.	16b\Jk	.
=121	=121	=121	=121	=121
*	*clefF4	*	*	*
!	!LO:TX:t=P:problem:mixed beam	!	!	!
2ryy	8AA</L	.	8a/L)	.
.	8f# 8d 8A\	.	(16a/L	.
.	.	.	16f#/JJ	.
.	8AAA</	.	8g/L)	.
.	8eJ 8c#X 8A 8G\	.	(16g/L	.
.	.	.	16e/JJ	[[
=122	=122	=122	=122	=122
!LO:TX:a:i:t=poco rit.	!	!	!LO:TX:a:i:t=poco rit.	!
2D 2DD/	8d 8F#\	.	4d/)	>
.	(8dL 8F#\	>	.	.
!!LO:TX:a:B:t=G
.	8c#X 8A 8G#X\	.	(8e'/L	] mp <
.	8dJ 8cn 8An\	]	8f#'/J)	.
=123	=123	=123	=123	=123
!	!	!	!LO:TX:a:i:t=a tempo	!
4GG 4GGG/	8r)	p	4g^>/	.
!	!LO:TX:b:i:t=a tempo	!	!	!
.	4d 4B 4G 4D\	.	.	.
4r	.	.	4b^\	[[
.	8d 8B 8G 8D\	.	.	.
=124	=124	=124	=124	=124
4GG 4GGG/	8r	.	4dd^\	>
.	4d 4B 4G 4D\	.	.	]
4r	.	.	(16cc/LL	<
.	.	.	16b/	.
.	8d 8B 8G 8D\	.	16a/	.
.	.	.	16g/JJ)	.
=125	=125	=125	=125	=125
!	!LO:TX:t=P:problem:mixed beam	!	!	!
2ryy	8AA<L 8AAA</	.	8f#/L	[
.	8f# 8d 8A\	.	(16f#/L	<
.	.	.	16g/JJ	.
.	8AA< 8AAA</	.	8e/L)	[
.	8eJ 8c#X 8G\	.	(16e/L	<
.	.	.	16f#/JJ	[[
=126	=126	=126	=126	=126
4 D 4DD/	8d 8F#\	.	4d/)	>
*	*clefG2	*	*	*
.	(8ccnL 8e/	>	.	]
4r	8b 8d/	.	(8e'/L	mf <
.	8aJ 8cn/	.	8f#'/J)	.
!!LO:LB:g=original
*xywh-8:271,1063,2416,818	*xywh-8:271,1063,2416,818	*	*xywh-8:271,1063,2416,818	*
=127	=127	=127	=127	=127
4GG 4GGG/	8g 8B/)	]	4g^>/	.
*	*clefF4	*	*	*
.	4d 4B 4G\	mf	.	.
4r	.	.	4b^\	[[
.	8d 8B 8G\	.	.	.
=128	=128	=128	=128	=128
4GG 4GGG/	8r	.	4dd^\	>
.	4d 4B 4G 4D\	.	.	]
4r	.	.	(16cc/LL	<
.	.	.	16b/	.
.	8d 8B 8G 4D\	.	16a/	.
.	.	.	16g/JJ)	.
=129	=129	=129	=129	=129
!	!LO:TX:t=P:problem:mixed beam	!	!	!
2ryy	8AA<L 8AAA</	.	8f#/L	[
.	8d 8A 8F#\	.	(16f#/L	<
.	.	.	16g/JJ	.
.	8AA< 8AAA</	.	8e/L)	[
.	8eJ 8c#X 8A 8G\	.	(16e/L	<
.	.	.	16f#/JJ	[
=130	=130	=130	=130	=130
!	!LO:TX:t=P:problem:mixed beam	!	!	!
2ryy	8BB<L 8DD</	.	4d/)	>
.	8d 8A 8F#\	.	.	]
.	8GG< 8GGG</	p	(8.dd\L	p <
*	*clefG2	*	*	*
.	8bJ 8g 8d 8B\	.	.	.
.	.	.	16b\Jk)	.
=131	=131	=131	=131	=131
!	!LO:TX:t=P:problem:mixed beam	!	!	!
2ryy	8AA<L 8AAA</	.	8a`/L	.
.	8a 8f# 8d 8A\	.	(16f#/L	.
.	.	.	16a/JJ)	.
.	8AA< 8AAA</	.	(16a/LL	.
.	.	.	16g/	.
.	8aJ 8g 8c#X 8A\	.	16e/	.
.	.	.	16g'/JJ)	[[
=132	=132	=132	=132	=132
!	!LO:TX:t=P:problem:mixed beam	!	!	!
2ryy	8D<L 8DD</	.	(8f#t/L	>
.	8a 8f# 8d 8A\	.	16d/L)	.
.	.	.	16d'/JJ	]
.	8GG< 8GGG</	.	(16g/LL	<
.	.	.	16a/	.
.	8gJ 8d 8B\	.	16b/)	.
.	.	.	16g'/JJ	.
=133	=133	=133	=133	=133
!	!LO:TX:b:i:t=poco rit.	!	!	!
!	!LO:TX:t=P:problem:mixed beam	!	!LO:TX:a:i:t=poco rit.	!
2ryy	8AA<L 8AAA</	.	8f#`/L	[
*	*clefF4	*	*	*
.	8f# 8d 8A\	.	(16d/L	.
.	.	.	16f#/JJ)	.
.	8AA< 8AAA</	.	(16f#/LL	>
.	.	.	16e/	.
.	8eJ 8A 8G\	.	16d/)	.
.	.	.	16c#X'/JJ	.
=134	=134	=134	=134	=134
2DD;/	8d 8F#;\	.	2d;/	.
.	(8dL 8D\	>	.	]
.	8c 8E\	.	.	.
*kcancel	*kcancel	*	*kcancel	*
.	8dJ 8A 8F#\	]	.	.
*	*clefG2	*	*	*
!!LO:LB:g=original
*xywh-8:246,1843,2422,849	*xywh-8:246,1843,2422,849	*	*xywh-8:246,1843,2422,849	*
=135||	=135||	=135||	=135||	=135||
*k[b-e-]	*k[b-e-]	*	*k[b-e-]	*
*	*	*	*^	*
*	*	*	*	*tremolo	*
!!LO:TX:a:B:t=:mod=Adagio.
!	!	!	!LO:TX:a:B:t=Adagio.:mod=	!	!
!!LO:TX:a:B:t=:mod=Var.8.
!	!	!	!LO:TX:a:B:t=Var.8.:mod=	!	!
4GG 4GGG/	4g 4G/)	.	4g^/	(64B-\LLLL	p <
.	.	.	.	64d\	.
.	.	.	.	64B-\	.
.	.	.	.	64d\	.
.	.	.	.	64B-\	.
.	.	.	.	64d\	.
.	.	.	.	64B-\	.
.	.	.	.	64d\	.
.	.	.	.	64B-\	.
.	.	.	.	64d\	.
.	.	.	.	64B-\	.
.	.	.	.	64d\	.
.	.	.	.	64B-\	.
.	.	.	.	64d\	.
.	.	.	.	64B-\	.
.	.	.	.	64d\JJJJ)	.
4r	4r	.	4b-^/	(64g\LLLL	.
.	.	.	.	64d\	.
.	.	.	.	64g\	.
.	.	.	.	64d\	.
.	.	.	.	64g\	.
.	.	.	.	64d\	.
.	.	.	.	64g\	.
.	.	.	.	64d\	.
.	.	.	.	64g\	.
.	.	.	.	64d\	.
.	.	.	.	64g\	.
.	.	.	.	64d\	.
.	.	.	.	64g\	.
.	.	.	.	64d\	.
.	.	.	.	64g\	.
.	.	.	.	64d\JJJJ)	[
=136	=136	=136	=136	=136	=136
4r	2r	.	4dd^/	(64b-\LLLL	>
.	.	.	.	64d\	.
.	.	.	.	64b-\	.
.	.	.	.	64d\	.
.	.	.	.	64b-\	.
.	.	.	.	64d\	.
.	.	.	.	64b-\	.
.	.	.	.	64d\	.
.	.	.	.	64b-\	.
.	.	.	.	64d\	.
.	.	.	.	64b-\	.
.	.	.	.	64d\	.
.	.	.	.	64b-\	.
.	.	.	.	64d\	.
.	.	.	.	64b-\	.
.	.	.	.	64d\JJJJ)	]
*	*	*	*	*Xtremolo	*
8r	.	.	16cc/LL	(64a\LLLL	<
.	.	.	.	64d\	.
.	.	.	.	64a\	.
.	.	.	.	64d\	.
.	.	.	16b-/	64g\	.
.	.	.	.	64d\	.
.	.	.	.	64g\	.
.	.	.	.	64d\JJJJ	.
(<16F#X\LL	.	<	16c/	64a\LLLL	.
.	.	.	.	64d\	.
.	.	.	.	64a\	.
.	.	.	.	64d\	.
16G\JJ	.	[	16B-/JJ	64g\	.
.	.	.	.	64d\	.
.	.	.	.	64g\	.
.	.	.	.	64d\JJJJ)	.
=137	=137	=137	=137	=137	=137
*	*	*	*	*tremolo	*
4A\	2r	>	4f#X/	(64A\LLLL	[ >
.	.	.	.	64d\	.
.	.	.	.	64A\	.
.	.	.	.	64d\	.
.	.	.	.	64A\	.
.	.	.	.	64d\	.
.	.	.	.	64A\	.
.	.	.	.	64d\	.
.	.	.	.	64A\	.
.	.	.	.	64d\	.
.	.	.	.	64A\	.
.	.	.	.	64d\	.
.	.	.	.	64A\	.
.	.	.	.	64d\	.
.	.	.	.	64A\	.
.	.	.	.	64d\JJJJ)	]
4AA/)	.	]	8g/L	(64A\LLLL	<
.	.	.	.	64en\	.
.	.	.	.	64A\	.
.	.	.	.	64en\	.
.	.	.	.	64A\	.
.	.	.	.	64en\	.
.	.	.	.	64A\	.
.	.	.	.	64en\JJJJ	.
.	.	.	8e/J	64A\LLLL	.
.	.	.	.	64c#X\	.
.	.	.	.	64A\	.
.	.	.	.	64c#X\	.
.	.	.	.	64A\	.
.	.	.	.	64c#X\	.
.	.	.	.	64A\	.
.	.	.	.	64c#X\JJJJ)	[
=138	=138	=138	=138	=138	=138
4D\	4r	.	4f#X/	(64A\LLLL	>
.	.	.	.	64d\	.
.	.	.	.	64A\	.
.	.	.	.	64d\	.
.	.	.	.	64A\	.
.	.	.	.	64d\	.
.	.	.	.	64A\	.
.	.	.	.	64d\	.
.	.	.	.	64A\	.
.	.	.	.	64d\	.
.	.	.	.	64A\	.
.	.	.	.	64d\	.
.	.	.	.	64A\	.
.	.	.	.	64d\	.
.	.	.	.	64A\	.
.	.	.	.	64d\JJJJ)	]
.	.	.	(8qG/	.	.
4G\	(>8d/L	<	8dd/L)	(64b-\LLLL	<
.	.	.	.	64d\	.
.	.	.	.	64b-\	.
.	.	.	.	64d\	.
.	.	.	.	64b-\	.
.	.	.	.	64d\	.
.	.	.	.	64b-\	.
.	.	.	.	64d\JJJJ	.
.	8en/J	.	8b-/J	64g\LLLL	.
.	.	.	.	64d\	.
.	.	.	.	64g\	.
.	.	.	.	64d\	.
.	.	.	.	64g\	.
.	.	.	.	64d\	.
.	.	.	.	64g\	.
.	.	[	.	64d\JJJJ)	[
*	*	*	*	*Xtremolo	*
=139	=139	=139	=139	=139	=139
*	*^	*	*	*	*
*	*	*xywh-8:246,1843,2422,849	*	*	*	*
8A\	4f#X 4d/)	8r	>	(64aLLLL 64f#X/	4ryy	>
.	.	.	.	64A/	.	.
.	.	.	.	64f# 64d/	.	.
.	.	.	.	64A/	.	.
.	.	.	.	64f# 64d/	.	.
.	.	.	.	64A/	.	.
.	.	.	.	64f# 64d/	.	.
.	.	.	.	64A/JJJJ	.	.
*	*	*	*	*tremolo	*	*
8r	.	4A\	]	64f#LLLL 64d/	.	.
.	.	.	.	64A/	.	.
.	.	.	.	64f# 64d/	.	.
.	.	.	.	64A/	.	.
.	.	.	.	64f# 64d/	.	.
.	.	.	.	64A/	.	.
.	.	.	.	64f# 64d/	.	.
.	.	.	.	64A/JJJJ)	.	]
4AA/	(8dL 8Bn/	.	<	8g/L	(64A\LLLL	<
.	.	.	.	.	64en\	.
.	.	.	.	.	64A\	.
.	.	.	.	.	64en\	.
.	.	.	.	.	64A\	.
.	.	.	.	.	64en\	.
.	.	.	.	.	64A\	.
.	.	.	.	.	64en\JJJJ	.
.	8enJ 8c/	8ryy	.	8e/J	64A\LLLL	.
.	.	.	.	.	64c#X\	.
.	.	.	.	.	64A\	.
.	.	.	.	.	64c#X\	.
.	.	.	.	.	64A\	.
.	.	.	.	.	64c#X\	.
.	.	.	.	.	64A\	.
.	.	.	[	.	64c#X\JJJJ)	[
*	*	*xywh-8:246,1843,2422,849	*	*	*	*
*	*v	*v	*	*	*	*
=140	=140	=140	=140	=140	=140
8DD/	8f#X 8d/)	>	4f#X/	(64d\LLLL	>
.	.	.	.	64A\	.
.	.	.	.	64d\	.
.	.	.	.	64A\	.
.	.	.	.	64d\	.
.	.	.	.	64A\	.
.	.	.	.	64d\	.
.	.	.	.	64A\	.
8r	8r	]	.	64d\	.
.	.	.	.	64A\	.
.	.	.	.	64d\	.
.	.	.	.	64A\	.
.	.	.	.	64d\	.
.	.	.	.	64A\	.
.	.	.	.	64d\	.
.	.	.	.	64A\JJJJ)	]
!!LO:TX:a:B:t=H
.	.	.	(8qG/	.	.
4G\	(>8d/L	<	8dd/L)	(64b-\LLLL	<
.	.	.	.	64d\	.
.	.	.	.	64b-\	.
.	.	.	.	64d\	.
.	.	.	.	64b-\	.
.	.	.	.	64d\	.
.	.	.	.	64b-\	.
.	.	.	.	64d\JJJJ	.
.	8en/J	.	8b-/J	64g\LLLL	.
.	.	.	.	64d\	.
.	.	.	.	64g\	.
.	.	.	.	64d\	.
.	.	.	.	64g\	.
.	.	.	.	64d\	.
.	.	.	.	64g\	.
.	.	[	.	64d\JJJJ)	[
*	*	*	*	*Xtremolo	*
!!LO:LB:g=original
*xywh-8:265,2699,2403,899	*xywh-8:265,2699,2403,899	*	*xywh-8:265,2699,2403,899	*	*
=141	=141	=141	=141	=141	=141
*	*^	*	*	*	*
*	*	*xywh-8:265,2699,2403,899	*	*	*	*
8A\	4f#X 4d/)	8r	>	(64aLLLL 64f#X/	4ryy	>
.	.	.	.	64A/	.	.
.	.	.	.	64f# 64d/	.	.
.	.	.	.	64A/	.	.
.	.	.	.	64f# 64d/	.	.
.	.	.	.	64A/	.	.
.	.	.	.	64f# 64d/	.	.
.	.	.	.	64A/JJJJ	.	.
*	*	*	*	*tremolo	*	*
8r	.	4A\	]	64f#LLLL 64d/	.	.
.	.	.	.	64A/	.	.
.	.	.	.	64f# 64d/	.	.
.	.	.	.	64A/	.	.
.	.	.	.	64f# 64d/	.	.
.	.	.	.	64A/	.	.
.	.	.	.	64f# 64d/	.	.
.	.	.	.	64A/JJJJ)	.	]
4AA/	(8dL 8Bn/	.	<	8g/L	(64A\LLLL	<
.	.	.	.	.	64en\	.
.	.	.	.	.	64A\	.
.	.	.	.	.	64en\	.
.	.	.	.	.	64A\	.
.	.	.	.	.	64en\	.
.	.	.	.	.	64A\	.
.	.	.	.	.	64en\JJJJ	.
.	8enJ 8c#/	8ryy	.	8e/J	64A\LLLL	.
.	.	.	.	.	64c#X\	.
.	.	.	.	.	64A\	.
.	.	.	.	.	64c#X\	.
.	.	.	.	.	64A\	.
.	.	.	.	.	64c#X\	.
.	.	.	.	.	64A\	.
.	.	.	[	.	64c#X\JJJJ)	[
*	*	*	*	*	*Xtremolo	*
*	*	*xywh-8:265,2699,2403,899	*	*	*	*
*	*v	*v	*	*	*	*
=142	=142	=142	=142	=142	=142
8DD/	8f#X 8d/)	>	(32d/LLL	4d\	>
.	.	.	32d/	.	.
.	.	]	32e-/	.	.
.	.	.	32d/	.	.
8r	8r	.	32e-/	.	.
.	.	.	32d/	.	.
.	.	.	32e-/	.	.
.	.	.	32d/JJJ)	.	]
4c 4D\	(>4a 4d/	<	(32d/LLL	4c\	<
.	.	.	(32d/	.	.
.	.	.	32e-/	.	.
.	.	.	32d/	.	.
.	.	.	32e-/	.	.
.	.	.	32d/	.	.
.	.	.	32e-/	.	.
.	.	[	32d/JJJ))	.	[
=143	=143	=143	=143	=143	=143
4B- 4D\	4g 4d/	>	(32d/LLL	4B-\	>
.	.	.	(32d/	.	.
.	.	.	32e-/	.	.
.	.	.	32d/	.	.
.	.	.	32e-/	.	.
.	.	.	32d/	.	.
.	.	.	32e-/	.	.
.	.	.	32d/JJJ))	.	]
4A 4D\	4f#X 4d 4c/	.	(32d/LLL	8A\	.
.	.	]	(32d/	.	.
.	.	.	32e-/	.	.
.	.	.	32d/	.	.
.	.	.	(8qf/	.	.
.	.	.	32e-/)	8ryy	.
.	.	.	32d/	.	.
.	.	.	32.ddd;\))	.	.
.	.	.	(64d/JJJk	.	p <
*	*	*	*v	*v	*
=144||	=144||	=144||	=144||	=144||
*k[f#]	*k[f#]	*	*k[f#]	*
!!LO:TX:a:B:t=:mod=tranquillo
!	!	!	!LO:TX:b:i:t=tranquillo:mod=	!
!!LO:TX:a:B:t=:mod=Poco Andante.
!	!	!	!LO:TX:a:B:t=Poco Andante.:mod=	!
!!LO:TX:a:B:t=:mod=Var.9.
!	!	!	!LO:TX:a:B:t=Var.9.:mod=	!
8r	8r)	.	8.g/L)	.
8G 8GG/	(8g 8d 8B'>/	<	.	.
.	.	.	(16d/Jk	.
8r	8r	.	8.b/L)	.
8D 8GG/	8b 8g 8d'>/	.	.	.
.	.	[	(16d/Jk	[[
=145	=145	=145	=145	=145
8r	8r	.	8.dd\L)	>
8d 8G\	8dd 8b 8g'\)	>	.	]
.	.	]	16bb\Jk	<
4r	4r	.	16aa\LL	.
.	.	.	16gg\	.
.	.	.	16dd\	.
.	.	.	16b\JJ	.
!!LO:PB:g=original
*xywh-9:24,248,2540,812	*xywh-9:24,248,2540,812	*	*xywh-9:24,248,2540,812	*
=146	=146	=146	=146	=146
!	!LO:TX:t=P:problem:mixed beam	!	!	!
2ryy	8AA</L	.	(16aM\LL	.
.	.	.	16g#X\	.
.	8a 8f# 8d 8A\	.	16a\	.
.	.	.	16ddd\JJ)	.
.	8AA</	.	(16eM\LL	.
.	.	.	16d#X\	.
.	8aJ 8g 8e 8c#X\	.	16e\	.
.	.	.	16aa\JJ)	[[
=147	=147	=147	=147	=147
2DD/	8dd 8f# 8d/	.	4dd\	>
.	(>8ccnL 8g 8e/	>	.	]
.	8b 8g#X 8fn 8d/	.	16r	.
.	.	.	(16d/LL	<
.	8aJ 8f#X 8d 8c/	.	32e-X/L	.
.	.	.	32en/	.
.	.	.	32fn/	.
.	.	.	32f#X/JJJ)	.
=148	=148	=148	=148	=148
4D 4GG;/	(>4g 4d 4B;/)	] <	4g;/	[
.	.	.	(32qqd/LLL	<
.	.	.	32qqe-X/	.
.	.	.	32qqen/	.
.	.	.	32qqfn/	.
.	.	.	32qqf#X/	.
.	.	.	32qqg/	.
.	.	.	32qqg#X/	.
.	.	.	32qqa/	.
.	.	.	32qqa#X/JJJ)	.
4B 4G;\	4b 4g 4d;/	.	4b;\	[
.	.	.	(32qqd/LLL	<
.	.	.	32qqe-X/	.
.	.	.	32qqen/	.
.	.	.	32qqfn/	.
.	.	.	32qqf#X/	.
.	.	.	32qqgn/	.
.	.	.	32qqg#X/	.
.	.	.	32qqan/	.
.	.	.	32qqa#X/	.
.	.	.	32qqb/	.
.	.	.	32qqcc/	.
.	.	[	32qqcc#X/JJJ)	[[
=149	=149	=149	=149	=149
4D 4GG/	4dd 4b 4g 4d/)	>	(16dd\LL	>
.	.	]	16bb\)	]
.	.	.	(32bb^\L	.
.	.	.	32aa#X^\	.
.	.	.	32aan^\	.
.	.	.	32gg#X^\JJJ	.
4r	4r	.	32ggn^\LLL	.
.	.	.	32ff#^\	.
.	.	.	32ffn^\	.
.	.	.	32ee^\JJJ	.
*	*	*	*tuplet	*
.	.	.	48ee-X^\LLL	.
.	.	.	48dd^\	.
.	.	.	48cc#X^\	.
.	.	.	48ccn^\	.
.	.	.	48b^\	.
.	.	.	48b-X^\JJJ)	.
!!LO:LB:g=original
*xywh-9:76,1038,2546,858	*xywh-9:76,1038,2546,858	*	*xywh-9:76,1038,2546,858	*
=150	=150	=150	=150	=150
!LO:MO:mod=!null:null	!LO:MO:mod=!null:null	!	!LO:MO:mod=!null:null	!
!LO:N:vis=4	!LO:N:vis=4	!	!LO:N:vis=4	!
4AAA;/ 4AA	4A;/ 4d 4f# 4a	.	(8a/	.
.	.	.	(16a\LL	.
.	.	.	16dd\JJ))	.
*	*	*	*cue	*
!	!	!	!LO:TX:a:B:t=Presto.	!
!	!	!	!LO:TX:b:i:t=Cadenza	!
!	!	!	!LO:TUP:a	!
4ryy	4ryy	.	(116ddd\LLLL	.
.	.	.	116ccc#X\	.
.	.	.	116cccn\	.
.	.	.	116bb\	.
.	.	.	116bb-X\	.
.	.	.	116aa\	.
.	.	.	116gg#X\	.
.	.	.	116ggn\	.
.	.	.	116ff#\	.
.	.	.	116ffn\	.
.	.	.	116ee\	.
.	.	.	116dd#X\	.
.	.	.	116ddn\	.
.	.	.	116cc#X\	.
.	.	.	116ccn\	.
.	.	.	116b\	.
.	.	.	116b-X\	.
.	.	.	116a\	.
.	.	.	116a-X\	.
.	.	.	116g\	.
.	.	.	116f#\	.
.	.	.	116fn\	.
.	.	.	116e\	.
.	.	.	116e-X\	.
.	.	.	116d\	.
.	.	.	116c#X\	.
.	.	.	116cn\	.
.	.	.	116B\	.
.	.	.	116B-X\JJJJ)	.
!LO:MO:mod=!null:null	!LO:MO:mod=!null:null	!	!	!
!LO:N:vis=4	!LO:N:vis=4	!	!	!
4AAA;/ 4AA	(>4A;/ 4c#X 4g 4a	.	(16A;</LL	.
.	.	.	48c#X/L	.
.	.	.	48Bn/	.
.	.	.	48A/JJJ	.
*	*	*	*Xtuplet	*
.	.	.	48en/LLL	.
.	.	.	48d/	.
.	.	.	48c#/	.
.	.	.	48g/	.
.	.	.	48fn/	.
.	.	.	48e/JJJ	.
2ryy	2ryy	.	32cc#X/LLL)	.
.	.	.	(32bn/	.
.	.	.	32e/	.
.	.	.	32fn/	.
.	.	.	32f#X/	.
.	.	.	32an/	.
.	.	.	32g/	.
.	.	.	32Bn/JJJ)	.
*	*	*	*Xcue	*
!	!	!	!LO:TX:b:i:t=rit.	!
.	.	.	(8c#t;</L	.
.	.	.	16qqB#X/LL	>
.	.	.	16qqc#/JJ	.
.	.	.	16.f#/L	.
.	.	.	32e/JJk)	.
!!LO:LB:g=original
*xywh-9:35,1850,2615,869	*xywh-9:35,1850,2615,869	*	*xywh-9:35,1850,2615,869	*
=151	=151	=151	=151	=151
!!LO:TX:a:B:t=J
4BB 4DD/	4a 4f# 4d 4A/)	.	8.d/L	]
!	!	!	!LO:TX:a:i:t=capriccioso	!
.	.	.	(16d/Jk	<
8GGG/L	8r	<	(32ddd\LLL)	.
.	.	.	32bb\	.
.	.	.	32gg\	.
.	.	.	32dd\	.
8dJ 8B 8D/	8gg 8b 8g\	.	32b\	.
.	.	.	32g\	.
.	.	.	32G\JJJ)	.
.	.	.	64r	.
.	.	.	64bb\	.
=152	=152	=152	=152	=152
8AAA/L	8r	.	(32aa/LLL	.
.	.	.	32ff#/	.
.	.	.	32dd/	.
.	.	.	32a/	.
8dJ 8A 8D/	8ff# 8a 8f#\	.	32f#/	.
.	.	.	32d/	.
.	.	.	32A/JJJ)	.
.	.	.	64r	.
.	.	.	64aa\	.
8AA\L	8r	.	(32gg#X\LLL	.
.	.	.	32aa\	.
.	.	.	32bb\	.
.	.	.	32aa\	.
8c#XJ 8A 8G\	8ee 8a 8e/	.	32ccc#X\	.
.	.	.	32bb\)	.
.	.	.	32aa`\	.
.	.	.	32ggn`\JJJ	.
=153	=153	=153	=153	=153
8DD\L	8r	>	(8ee#X\L	>
8dJ 8A 8F#\	8dd 8a 8d/	]	16.ff#\L)	.
.	.	.	(32d\JJk	.
8GG\L	8r	<	32ddd`\LLL)	] <
.	.	.	(32bb\	.
.	.	.	32gg\	.
.	.	.	32dd\	.
8dJ 8B 8D\	8gg 8b 8g\	.	32b\	.
.	.	.	32g\	.
.	.	.	32G\JJJ)	.
.	.	.	64r	.
.	.	.	64bb\	.
!!LO:LB:g=original
*xywh-9:53,2725,2580,852	*xywh-9:53,2725,2580,852	*	*xywh-9:53,2725,2580,852	*
=154	=154	=154	=154	=154
4AA;\ 4D 4A	4f#;\ 4a 4dd 4ff#	.	4aa;\	.
*	*	*	*X8va	*
!	!	!	!LO:TX:b:i:t=veloce	!
4ryy	4ryy	.	(64fff#\LLLL	.
.	.	.	64eee\	.
.	.	.	64ddd\	.
.	.	.	64ccc#X\	.
.	.	.	64bb\	.
.	.	.	64aa\	.
.	.	.	64gg\	.
.	.	.	64ff#\JJJJ	.
.	.	.	64ee\LLLL	.
.	.	.	64dd\	.
.	.	.	64cc#X\	.
.	.	.	64b\JJJJ	.
*	*	*	*tuplet	*
!	!	!	!LO:TUP:b	!
.	.	.	112a/LLLL	.
.	.	.	112g/	.
.	.	.	112f#/	.
.	.	.	112e/	.
.	.	.	112d/	.
.	.	.	112c#X/	.
.	.	.	112B/JJJJ)	.
!	!LO:MO:mod=!null:null	!	!	!
!	!LO:N:vis=4	!	!	!
4AAA; 4AA	(>4c#X; 4e 4g 4a 4cc#X	.	([4A;/	.
*	*	*	*cue	*
2.ryy	2.ryy	.	32A\LLL]	.
.	.	.	32c#X\	.
.	.	.	32e\	.
.	.	.	32a\	.
.	.	.	32cc#X\	.
.	.	.	32b#X\	.
.	.	.	32dd\	.
.	.	.	32cc#\	.
.	.	.	32ee\	.
.	.	.	32dd#X\	.
.	.	.	32ff#\	.
.	.	.	32ee\	.
.	.	.	32aa\	.
.	.	.	32gg#X\	.
.	.	.	32bbn\	.
.	.	.	32aa\	.
.	.	.	32ccc#X\	.
.	.	.	32bb#X\	.
.	.	.	32dddn\	.
.	.	.	32ccc#\	.
.	.	.	32eee\	.
.	.	.	32ddd#X\	.
.	.	.	32fff#\	.
.	.	.	32eee\JJJ)	.
*	*	*	*Xcue	*
4ryy	4ryy	.	(8.aaa;\L	>
.	.	.	16cc#\Jk)	.
=155	=155	=155	=155	=155
2D 2DD;/	8dd 8f# 8d;/)	.	2dd;\	]
.	(>8cc#XL 8g 8e/	<	.	.
.	8ccn 8a 8f#/	.	.	.
.	8f#J 8d 8c/	[	.	.
!!LO:PB:g=original
*xywh-10:309,213,2413,831	*xywh-10:309,213,2413,831	*	*xywh-10:309,213,2413,831	*
=156||	=156||	=156||	=156||	=156||
*	*	*	*8va	*
!!LO:TX:a:B:t=:mod=Allegro.
!	!	!	!LO:TX:a:B:t=Allegro.:mod=	!
!!LO:TX:a:B:t=:mod=Var.10.
!	!	!	!LO:TX:a:B:t=Var.10.:mod=	!
4GG/	(4g 4d 4B'>/)	mf <	16gg`\LL	ff
.	.	.	16bb`\	.
.	.	.	16ddd`\	.
.	.	.	16ggg`\JJ	.
4G\	4b 4g 4d'>/	.	16bbb`\LL	.
.	.	.	16ggg`\	.
.	.	.	16ddd`\	.
.	.	[	16bb`\JJ	.
=157	=157	=157	=157	=157
4g\	4dd 4b^<\)	f	16ddd\LL	.
.	.	.	16ggg\	.
.	.	.	16bbb\	.
.	.	.	16dddd\JJ	.
4r	(>16cc/LL	<	16gggg\LL	.
.	16b/	.	16dddd\	.
.	16a/	.	16bbb\	.
.	16g/JJ	.	16ggg\JJ	.
=158	=158	=158	=158	=158
8AA\L	8f#/L)	.	16fff#\LL	<
.	.	[	16aaa\	.
8dJ 8A\	(>16f#/L	<	16dddd\	.
.	16g/JJ	.	16ffff#\JJ	.
8AA\L	8e/L)	[	16aaaa\LL	.
.	.	.	16gggg\	.
8c#XJ 8G\	(>16e/L	<	16eeee\	.
.	16f#/JJ	[[	16cccc#X\JJ	[[
=159	=159	=159	=159	=159
8D\L	8d/)	>	16dddd\LL	>
.	.	.	16aaa\	.
8dJ 8F#\	8r	]	16fff#\	.
.	.	.	16ddd\JJ	]
8GG\L	(8bbL 8dd'\	<	16bb\LL	<
.	.	.	16ggg\	.
8gJ 8d\	8ggJ 8b'\	.	16dddd\	.
.	.	.	16gggg\JJ	.
=160	=160	=160	=160	=160
8AA\L	8ff#L 8a'\	.	16ffff#\LL	.
.	.	.	16dddd\	.
8aJ 8d\	8ddJ 8f#'\	.	16aaa\	.
.	.	.	16fff#\JJ	.
8AA\L	8eeL 8g'>/	.	16aa\LL	.
.	.	.	16eee\	.
8gJ 8c#X\	8aJ 8e'>/	.	16cccc#X\	.
.	.	[	16aaaa\JJ	[[
=161	=161	=161	=161	=161
*	*^	*	*	*
*	*	*xywh-10:309,213,2413,831	*	*	*
8D\L	4dd/)	8f#'\L	>	16ffff#\LL	>
.	.	.	.	16dddd\	.
8f#J 8d\	.	8a'\J	]	16aaa\	.
.	.	.	.	16fff#\JJ	]
.	.	(8qdd/	<	.	.
8G\L	4ryy	(8dddL 8bb'\)	.	16bb\LL	<
.	.	.	.	16ggg\	.
8bJ 8g\	.	8bbJ 8gg 8dd'\	.	16dddd\	.
*	*	*xywh-10:309,213,2413,831	*	*	*
.	.	.	.	16gggg\JJ	.
!!LO:LB:g=original
*xywh-10:355,1050,2361,796	*xywh-10:355,1050,2361,796	*	*xywh-10:355,1050,2361,796	*	*
=162	=162	=162	=162	=162	=162
*^	*	*	*	*	*
*	*xywh-10:355,1050,2361,796	*xywh-10:355,1050,2361,796	*xywh-10:355,1050,2361,796	*	*xywh-10:355,1050,2361,796	*
8f#/L	4.A\	8aaL 8dd'/	8r	.	16ffff#\LL	.
.	.	.	.	.	16dddd\	.
16d/L	.	16ff#/L	4a\	.	16aaa\	.
16d#X/JJ	.	16b#X/JJ	.	.	16fff#\JJ	.
8e/L	.	8ggL 8cc#X'/	.	.	16aa\LL	.
.	.	.	.	.	16eee\	.
8AA/J	8ryy	8cc#J 8g 8e'/	8ryy	.	16cccc#X\	.
.	.	.	.	[	16aaaa\JJ	[[
*	*xywh-10:355,1050,2361,796	*xywh-10:355,1050,2361,796	*xywh-10:355,1050,2361,796	*	*xywh-10:355,1050,2361,796	*
*v	*v	*	*	*	*	*
*	*v	*v	*	*	*
=163	=163	=163	=163	=163
2D\	2dd 2f# 2d^/)	.	16dddd^<\LL	.
!	!LO:TX:a:i:t=poco rit.	!	!LO:TX:a:i:t=poco rit.	!
.	.	.	16cccc#X\	.
.	.	.	16ccccn\	.
.	.	.	16aaa\JJ	.
.	.	.	16fff#X\LL	.
.	.	.	16ddd\	.
.	.	.	16ccc\	.
.	.	.	16aa\JJ	.
=164	=164	=164	=164	=164
!!LO:TX:a:B:t=K
!	!LO:TX:a:i:t=  a tempo	!	!LO:TX:a:i:t=a tempo	!
4GG/	(4g 4d 4B'>/	mf <	16gg\LL	ff
.	.	.	16bb\	.
.	.	.	16ddd\	.
.	.	.	16ggg\JJ	.
4G\	4b 4g 4d'>/	.	16bbb\LL	.
.	.	.	16ggg\	.
.	.	.	16ddd\	.
.	.	[	16bb\JJ	.
=165	=165	=165	=165	=165
4g^\	4dd 4b\)	.	16ddd\LL	.
.	.	.	16ggg\	.
.	.	.	16bbb\	.
.	.	.	16dddd\JJ	.
4r	(>16cc/LL	<	16gggg\LL	.
.	16b/	.	16dddd\	.
.	16a/	.	16bbb\	.
.	16g/JJ	.	16ggg\JJ	.
=166	=166	=166	=166	=166
8AA\L	8f#/L)	[	16fff#\LL	<
.	.	.	16aaa\	.
8dJ 8A\	(>16f#/L	<	16dddd\	.
.	16g/JJ	.	16ffff#\JJ	.
8AA\L	8e/L)	.	16aaaa\LL	.
.	.	[	16gggg\	.
8c#XJ 8G\	(>16e/L	<	16eeee\	.
.	16f#/JJ	[[	16cccc#X\JJ	[[
=167	=167	=167	=167	=167
8D\L	8d/)	>	16dddd\LL	>
.	.	.	16aaa\	.
8dJ 8F#\	8r	]	16fff#\	.
.	.	.	16ddd\JJ	]
8GG\L	(8bbL 8dd'\	<	16bb\LL	<
.	.	.	16ggg\	.
8gJ 8d\	8ggJ 8b'\	.	16dddd\	.
.	.	.	16gggg\JJ	.
!!LO:LB:g=original
*xywh-10:338,1853,2384,859	*xywh-10:338,1853,2384,859	*	*xywh-10:338,1853,2384,859	*
=168	=168	=168	=168	=168
8AA\L	8ff#L 8a'\	.	16ffff#\LL	.
.	.	.	16dddd\	.
8aJ 8d\	8ddJ 8f#'\	.	16aaa\	.
.	.	.	16fff#\JJ	.
8AA\L	8eeL 8g'>/	.	16aa\LL	.
.	.	.	16eee\	.
8gJ 8c#X\	8aJ 8e'>/	.	16cccc#X\	.
.	.	[	16aaaa\JJ	[[
=169	=169	=169	=169	=169
*	*^	*	*	*
*	*	*xywh-10:338,1853,2384,859	*	*	*
8D\L	4dd/)	8f#'\L	>	16ffff#\LL	>
.	.	.	.	16dddd\	.
8f#J 8d\	.	8a'\J	]	16aaa\	.
.	.	.	.	16fff#\JJ	]
.	(8qdd/	.	<	.	.
8G\L	(8dddL 8bb'\)	4ryy	.	16bb\LL	<
.	.	.	.	16ggg\	.
8bJ 8g\	8bbJ 8gg 8dd'\	.	.	16dddd\	.
.	.	.	.	16gggg\JJ	.
=170	=170	=170	=170	=170	=170
*^	*	*	*	*	*
*	*xywh-10:338,1853,2384,859	*	*	*	*	*
8f#/L	4.A\	8aaL 8dd'/	8r	.	16ffff#\LL	.
.	.	.	.	.	16dddd\	.
16d/L	.	16ff#/L	4a\	.	16aaa\	.
16d#X/JJ	.	16b#X/JJ	.	.	16fff#\JJ	.
8e/L	.	8ggL 8cc#X'/	.	.	16aa\LL	.
.	.	.	.	.	16eee\	.
8AA/J	8ryy	8cc#J 8g 8e'>/	8ryy	.	16cccc#X\	.
.	.	.	.	.	16aaaa\JJ	[[
*	*xywh-10:338,1853,2384,859	*xywh-10:338,1853,2384,859	*	*	*	*
*v	*v	*	*	*	*	*
*	*v	*v	*	*	*
=171	=171	=171	=171	=171
!	!LO:TX:b:i:t=poco rit.	!	!	!
2D\	2dd 2f# 2d^/)	[	16dddd^<\LL	.
!	!	!	!LO:TX:b:i:t=poco rit. e dim.	!
.	.	.	16cccc#X\	.
.	.	.	16ccccn\	.
.	.	.	16aaa\JJ	.
.	.	.	16fff#X\LL	.
.	.	.	16ddd\	.
.	.	.	16ccc\	.
.	.	.	16aa\JJ	.
*	*	*	*X8va	*
=172||	=172||	=172||	=172||	=172||
!!LO:TX:a:B:t=:mod=Var.11.
.	.	.	(16qqg/LL	.
.	.	.	16qqdd/	.
.	.	.	16qqddd/	p
!	!	!	!LO:TX:a:B:t=Var.11.:mod=	!
!	!	!	!LO:TX:b:i:t=poco più lento	!
.	.	.	16qqggg/JJ	.
*	*	*	*8va	*
!LO:TX:a:i:t=poco più lento	!	!	!	!
4G 4D 4GG/	(>4g 4d 4B'>/	p <	(8ggggTT\L)	<
.	.	.	8ffff#TTT\	.
4B 4G\	4b 4g 4d'>/	.	8eeeeTTT\	.
.	.	[	8ddddTTT\J	[[
=173	=173	=173	=173	=173
4G 4D 4GG/	4dd 4b 4g 4d/)	>	8ccccTTT\L	>
.	.	]	8bbbTTT\	]
4r	(16cccLL 16cc'\	<	8aaaTTT\	<
.	16bb 16b'\	.	.	.
.	16aa 16a'\	.	8gggTTT\J)	.
.	16ggJJ 16g'\	.	.	.
!!LO:LB:g=original
*xywh-10:281,2689,2430,888	*xywh-10:281,2689,2430,888	*	*xywh-10:281,2689,2430,888	*
=174	=174	=174	=174	=174
8AA\L	8ff#L 8f#\)	[	(8fff#TTT\L	[
8dJ 8A 8F#\	(16ff#L 16f#\	<	8aaaTTT\	<
.	16ggJJ 16g\	.	.	.
8AA\L	8eeL 8e\)	[	8bbbTTT\	[
8c#XJ 8A 8G\	(16eeL 16e\	<	8cccc#XTTT\J)	<
.	16ff#JJ 16f#\	[	.	[
=175	=175	=175	=175	=175
8DD\L	8ddL 8d'>/	>	4ddddTTT\	>
8dJ 8A 8F#\	8aJ 8f#'>/)	]	.	]
8GG\L	(8dddL 8dd'\	<	(8ddddTTT\L	<
8gJ 8d 8G\	8bbJ 8dd 8b'\	.	8bbbTTT\J)	.
=176	=176	=176	=176	=176
8AA\L	8aaL 8a'\	.	4aaaTTT\	.
8dJ 8A\	16ff#L 16f#'\	.	.	.
.	16aaJJ 16a'\	.	.	.
8AA\L	16aaLL 16a'\	.	4ggggTTT\	.
.	16gg 16g'\	.	.	.
8c#XJ 8A\	16ee 16e'\	.	.	.
.	16ggJJ 16g'\	[[	.	[
=177	=177	=177	=177	=177
8DD\L	8ff#L 8f#'>/	>	4ffff#TTT\	>
8dJ 8A 8F#\	16dd'>/L	.	.	.
.	16ddJJ 16d'>/)	]	.	]
8GG\L	(16ggLL 16b 16g'\	<	(8ddddTTT\L	<
.	16aa 16cc#X 16a'\	.	.	.
8gJ 8d 8B\	16bb 16dd 16b'\	.	8bbbTTT\J)	.
.	16ggJJ 16b 16g'\	.	.	[
=178	=178	=178	=178	=178
8AA\L	8ff#L 8a 8f#'\	.	4aaaTTT\	>
8dJ 8A\	16ddL 16f#'\	.	.	.
.	16ff#JJ 16a'\	.	.	]
8AA\L	16ff#LL 16a 16f#'>/	.	(8bbbTTT\L	<
.	16ee 16g 16e'>/	.	.	.
8A 8G\J	16dd 16f# 16d'>/	.	8cccc#XTTT\J)	.
.	16cc#XJJ 16e 16c#X'>/	[	.	[
!!LO:PB:g=original
*xywh-11:126,245,2512,837	*xywh-11:126,245,2512,837	*	*xywh-11:126,245,2512,837	*
=179	=179	=179	=179	=179
8F# 8D\	4dd 4d/)	>	4ddddTTT\	>
4d\	.	]	.	]
!!LO:TX:a:B:t=L
.	(>8ccnL 8g 8e/	<	(8eeeeTTT\L	<
8D\	8aJ 8f# 8c/	.	8ffff#TTT\J)	.
=180	=180	=180	=180	=180
4G 4D 4GG/	4g 4d 4B'>/	.	(8ggggTTT\L	.
.	.	.	8ffff#TTT\	.
4B 4G\	4b 4g 4d'>/	.	8eeeeTTT\	.
.	.	[	8ddddTTT\J	[[
=181	=181	=181	=181	=181
4G 4D 4GG/	4dd 4b 4g 4d/)	>	8ccccTTT\L	>
.	.	]	8bbbTTT\	]
4r	(16cccLL 16cc'\	<	8aaaTTT\	<
.	16bb 16b'\	.	.	.
.	16aa 16a'\	.	8gggTTT\J)	.
.	16ggJJ 16g'\	.	.	.
=182	=182	=182	=182	=182
8AA\L	8ff#L 8f#'\	[	(8fff#TTT\L	[
8dJ 8A 8F#\	16ff#L 16f#'\	.	8aaaTTT\	<
.	16ggJJ 16g'\	.	.	.
8AA\L	8eeL 8e'\	.	8bbbTTT\	[
8c#XJ 8A 8G\	16eeL 16e'\	.	8cccc#XTTT\J)	<
.	16ff#JJ 16f#'\	.	.	[[
=183	=183	=183	=183	=183
8DD\L	8ddL 8d'>/	>	4ddddTTT\	>
8dJ 8A 8F#\	8aJ 8f#'>/)	]	.	]
8GG\L	(8dddL 8dd'\	<	(8ddddTTT\L	<
8gJ 8d 8G\	8bbJ 8dd 8b'\	.	8bbbTTT\J)	.
=184	=184	=184	=184	=184
8AA\L	8aaL 8a'\	.	4aaaTTT\	.
8dJ 8A\	16ff#L 16f#'\	.	.	.
.	16aaJJ 16a'\	.	.	.
8AA\L	16aaLL 16a'\	.	4ggggTTT\	.
.	16gg 16g'\	.	.	.
8c#XJ 8A\	16ee 16e'\	.	.	.
.	16ggJJ 16g'\	[	.	[
!!LO:LB:g=original
*xywh-11:114,1051,2500,920	*xywh-11:114,1051,2500,920	*	*xywh-11:114,1051,2500,920	*
=185	=185	=185	=185	=185
8DD\L	8ff#L 8f#'>/	>	4ffff#TTT\	>
8dJ 8A 8F#\	16dd'>/L	.	.	.
.	16ddJJ 16d'>/)	]	.	]
8GG\L	(16ggLL 16b 16g'\	<	(8ddddTTT\L	<
.	16aa 16cc#X 16a'\	.	.	.
8gJ 8d 8B\	16bb 16dd 16b'\	.	8bbbTTT\J)	.
.	16ggJJ 16b 16g'\	.	.	[
=186	=186	=186	=186	=186
8AA\L	8ff#L 8a 8f#'\	.	4aaaTTT\	>
8dJ 8A\	16ddL 16f#'\	.	.	.
.	16ff#JJ 16a'\	.	.	]
8AA\L	16ff#LL 16a 16f#'/	.	(8bbbTTT\L	<
.	16ee 16g 16e'/	.	.	.
8AJ 8G\	16dd 16f# 16d'/	.	8cccc#XTTT\J)	.
.	16cc#XJJ 16e 16c#X'/	[[	.	[
=187	=187	=187	=187	=187
*^	*^	*	*	*
*	*xywh-11:114,1051,2500,920	*	*xywh-11:114,1051,2500,920	*	*	*
8F#/L	2D\	2dd/)	8dTTT\L	>	4.ddddTTT\	>
*	*	*	*	*	*X8va	*
8G/	.	.	(8eTTT\	]	.	]
8G#X/	.	.	8e#XTTT\	.	.	.
8A/J	.	.	8f#TTT\J	.	8r	.
*	*xywh-11:114,1051,2500,920	*	*xywh-11:114,1051,2500,920	*	*	*
*v	*v	*	*	*	*	*
*	*v	*v	*	*	*
=188||	=188||	=188||	=188||	=188||
!!LO:TX:a:B:t=Allegro con fuoco.
!	!	!	!LO:TX:a:B:t=Allegro con fuoco.:mod=	!
!!LO:TX:a:B:t=:mod=Var.12.
!	!	!	!LO:TX:a:B:t=Var.12.:mod=	!
4G 4D 4GG/	(4g 4d 4B'>/)	f <	16ggLL 16b 16d 16G'/	ff <
.	.	.	16d 16G'/	.
.	.	.	16d 16G'/	.
.	.	.	16ggJJ 16b'/	.
4B 4G\	4b 4g 4d'>/	.	16bbLL 16dd 16d 16G'/	.
.	.	.	16d 16G'/	.
.	.	.	16d 16G'/	.
.	.	[	16bbJJ 16dd'/	[[
=189	=189	=189	=189	=189
4d 4G\	4dd 4b 4g\)	>	16dddLL 16bb 16d 16G'/	>
.	.	]	16d 16G'/	.
.	.	.	16d 16G'/	.
.	.	.	16dddJJ 16bb'/	]
4r	(16cccLL 16cc'\	<	16cccLL 16aa\	<
.	16bb 16b'\	.	16bb 16gg\	.
.	16aa 16a'\	.	16aa 16ff#\	.
.	16ggJJ 16g'\	.	16ggJJ 16ee\	[[
!!LO:LB:g=original
*xywh-11:88,1958,2563,831	*xywh-11:88,1958,2563,831	*	*xywh-11:88,1958,2563,831	*
=190	=190	=190	=190	=190
8AA\L	8ff#L 8f#\)	.	16ff#LL 16dd/	>
.	.	[	16A/	.
8dJ 8A\	(16dd\L	<	16A/	.
.	16aaJJ 16a\	.	16ff#JJ 16dd/	]
8AA\L	8ggL 8g\)	.	16ggLL 16ee/	<
.	.	[	16A/	.
8c#XJ 8A 8G\	(8eeJ 8a 8e'\	<	16A/	.
.	.	[	16eeJJ 16cc#X/	[[
=191	=191	=191	=191	=191
8DD\L	8ddL 8d'>/	>	16ff#LL 16dd/	>
.	.	.	16d/	.
8dJ 8A 8F#\	8a'>/J)	]	16d/	.
.	.	.	16ff#JJ 16dd/	]
8GG\L	8dddL 8bb 8dd`\	<	16dddLL 16bb/	<
.	.	.	16d 16G/	.
8gJ 8d 8B\	(8bbJ 8gg 8b\	.	16d 16G/	.
.	.	.	16bbJJ 16gg/	.
=192	=192	=192	=192	=192
8AA\L	8aaL 8ff# 8a`\)	.	16aaLL 16ff#/	.
.	.	.	16A/	.
8dJ 8A 8F#\	(8ff#J 8dd 8f#\	.	16A/	.
.	.	.	16ff#JJ 16dd/	.
8AA\L	8ggL 8ee 8g`\)	.	16ggLL 16ee/	.
.	.	.	16A/	.
8c#XJ 8A 8G\	(8cc#XJ 8a 8e\	.	16A/	.
.	.	[	16eeJJ 16cc#X/	[[
=193	=193	=193	=193	=193
8DD\L	8ddL 8f#`>/	>	16ff#LL 16dd/	>
.	.	.	16d/	.
8dJ 8A 8F#\	8a'>/J)	]	16d/	.
.	.	.	16ff#JJ 16dd/	]
8GG\L	8dddL 8bb 8gg 8dd'\	<	16dddLL 16bb/	<
.	.	.	16G/	.
8gJ 8d 8B\	8bbJ 8gg 8dd 8b'\	.	16G/	.
.	.	.	16bbJJ 16gg/	.
=194	=194	=194	=194	=194
8AA\L	8aaL 8ff# 8dd 8a'\	.	16aaLL 16ff#/	.
.	.	.	16A/	.
8dJ 8A 8F#\	8ff#J 8dd 8f#'\	.	16A/	.
.	.	.	16ff#JJ 16dd/	.
8AA\L	8ggL 8ee 8g'\	.	16ggLL 16ee/	.
.	.	.	16A/	.
8c#XJ 8A\	8cc#XJ 8a 8g 8e'\	.	16A/	.
.	.	[	16eeJJ 16cc#X/	[[
=195	=195	=195	=195	=195
2D 2DD/	8dd 8f# 8d'>/	>	16ddLL 16d\	>
.	.	]	16dd 16d\	]
.	(>8ccnL 8g 8e/	<	16dd 16d\	<
.	.	.	16cccnJJ 16ee\	.
.	8b 8g#X 8fn 8d/	.	16ddLL 16d\	.
.	.	.	16bb 16dd\	.
.	8aJ 8f#X 8d 8c/	.	16cc 16d\	.
.	.	.	32aaJJk 32cc\	.
.	.	[	32r;	[
!!LO:LB:g=original
*xywh-11:75,2738,2627,869	*xywh-11:75,2738,2627,869	*	*xywh-11:75,2738,2627,869	*
=196||	=196||	=196||	=196||	=196||
!!LO:TX:a:B:t=M
*k[f#]	*k[f#]	*	*k[f#]	*
*M4/4	*M4/4	*	*M4/4	*
*met(c)	*met(c)	*	*met(c)	*
*mmet(c)	*mmet(c)	*	*mmet(c)	*
!!LO:TX:a:B:t=:mod=Maestoso.
!	!	!	!LO:TX:a:B:t=Maestoso.:mod=	!
4GGG/	4r)	f	2g/	f <
2G 2D 2GG/	2g 2d 2B/	.	.	.
.	.	.	2b\	[[
4B 4G 4D\	4b 4g 4d/	.	.	.
=197	=197	=197	=197	=197
4GGG/	4r	.	2dd\	>
2d 2B 2G\	2dd 2b 2g\	.	.	]
.	.	.	(8cc/L	<
.	.	.	8b/	.
4g 4d 4B\	4gg 4dd 4b\	.	8a/	.
.	.	.	8g/J)	.
=198	=198	=198	=198	=198
4AAA/	4r	.	4f#/	[
4d 4A\	4ff# 4dd 4a 4f#\	.	(8f#/L	<
.	.	.	8g/J)	.
4AA/	4r	.	4e/	[
4c#X 4A 4G\	4ee 4a 4g 4e/	.	(8e/L	<
.	.	.	8f#/J)	[
=199	=199	=199	=199	=199
4D\	4r	.	2d/	>
4A 4F#\	4dd 4a 4f# 4d/	.	.	]
4GG/	4r	.	(4dd\	<
4B 4G\	4dd 4b 4g 4d/	.	4b\)	.
=200	=200	=200	=200	=200
4DD/	4r	.	(8ccM\L	.
.	.	.	16b\L	.
.	.	.	16cc\JJ	[
2c 2D\	(>2.dd 2.f# 2.d/	.	4.bb\)	>
.	.	.	(8aa\	]
4DD/	.	.	8ff#\L	<
.	.	.	8cc\J)	.
=201	=201	=201	=201	=201
4GG 4GGG/	4r	.	(8bm/L	.
.	.	.	16a#X/L	.
.	.	.	16b/JJ	[
2B 2D\	2.dd 2.g 2.e/)	.	4.aan\)	>
.	.	.	(8gg\	]
4BB 4BBB/	.	.	8dd\L	<
.	.	.	8b\J)	.
=202	=202	=202	=202	=202
4C 4CC/	4r	.	(8aM/L	.
.	.	.	16g#X/L	.
.	.	.	16a/JJ	[
!	!LO:TX:b:i:t=rit.	!	!LO:TX:a:i:t=rit.	!
4r	(>4a 4e 4c/	.	(4.ff#~\)	>
4D 4DD/	4r	.	.	.
.	.	.	8ee~\	]
4r	4f# 4d 4c/	.	(8cc/L	<
.	.	.	8f#/J))	.
!!LO:PB:g=original
*xywh-12:243,245,2457,886	*xywh-12:243,245,2457,886	*	*xywh-12:243,245,2457,886	*
=203||	=203||	=203||	=203||	=203||
*M2/4	*M2/4	*	*M2/4	*
*	*^	*	*	*
*	*	*xywh-12:243,245,2457,886	*	*	*
*tremolo	*	*tremolo	*	*	*
!!LO:TX:a:B:t=:mod=Poco Andante.
!	!	!	!	!LO:TX:a:B:t=Poco Andante.:mod=	!
64GGG/LLLL	(2g/)	64B\LLLL	<	4g/	.
64GG/	.	64d\	.	.	.
64GGG/	.	64B\	.	.	.
64GG/	.	64d\	.	.	.
64GGG/	.	64B\	.	.	.
64GG/	.	64d\	.	.	.
64GGG/	.	64B\	.	.	.
64GG/	.	64d\	.	.	.
64GGG/	.	64B\	.	.	.
64GG/	.	64d\	.	.	.
64GGG/	.	64B\	.	.	.
64GG/	.	64d\	.	.	.
64GGG/	.	64B\	.	.	.
64GG/	.	64d\	.	.	.
64GGG/	.	64B\	.	.	.
64GG/	.	64d\	.	.	.
64GGG/	.	64B\	.	4b\	.
64GG/	.	64d\	.	.	.
64GGG/	.	64B\	.	.	.
64GG/	.	64d\	.	.	.
64GGG/	.	64B\	.	.	.
64GG/	.	64d\	.	.	.
64GGG/	.	64B\	.	.	.
64GG/	.	64d\	.	.	.
64GGG/	.	64B\	.	.	[
64GG/	.	64d\	.	.	.
64GGG/	.	64B\	.	.	.
64GG/	.	64d\	.	.	.
64GGG/	.	64B\	.	.	.
64GG/	.	64d\	.	.	.
64GGG/	.	64B\	.	.	.
64GG/JJJJ	.	64d\JJJJ	.	.	.
=204	=204	=204	=204	=204	=204
64GGG/LLLL	4f#/	64A\LLLL	.	4dd\	>
64GG/	.	64c\	.	.	.
64GGG/	.	64A\	.	.	.
64GG/	.	64c\	.	.	.
64GGG/	.	64A\	.	.	.
64GG/	.	64c\	.	.	.
64GGG/	.	64A\	.	.	.
64GG/	.	64c\	[	.	.
64GGG/	.	64A\	.	.	.
64GG/	.	64c\	.	.	.
64GGG/	.	64A\	.	.	.
64GG/	.	64c\	.	.	.
64GGG/	.	64A\	.	.	.
64GG/	.	64c\	.	.	.
64GGG/	.	64A\	.	.	.
64GG/	.	64c\JJJJ	.	.	]
64GGG/	4fn/	64G\LLLL	.	(16cc/LL	<
64GG/	.	64d\	.	.	.
64GGG/	.	64G\	.	.	.
64GG/	.	64d\	.	.	.
64GGG/	.	64G\	.	16b/	.
64GG/	.	64d\	.	.	.
64GGG/	.	64G\	.	.	.
64GG/	.	64d\	.	.	.
64GGG/	.	64G\	.	16a/	.
64GG/	.	64d\	.	.	.
64GGG/	.	64G\	.	.	.
64GG/	.	64d\	.	.	.
64GGG/	.	64G\	.	16g/JJ)	.
64GG/	.	64d\	.	.	.
64GGG/	.	64G\	.	.	.
64GG/JJJJ	.	64d\JJJJ	.	.	.
=205	=205	=205	=205	=205	=205
64GGG/LLLL	4e/	64G\LLLL	.	(8.gg\L	.
64GG/	.	64c\	.	.	.
64GGG/	.	64G\	.	.	.
64GG/	.	64c\	.	.	.
64GGG/	.	64G\	.	.	.
64GG/	.	64c\	.	.	.
64GGG/	.	64G\	.	.	.
64GG/	.	64c\	.	.	.
64GGG/	.	64G\	.	.	.
64GG/	.	64c\	.	.	.
64GGG/	.	64G\	.	.	.
64GG/	.	64c\	.	.	.
64GGG/	.	64G\	.	16ff#\Jk)	.
64GG/	.	64c\	.	.	.
64GGG/	.	64G\	.	.	.
64GG/	.	64c\	.	.	.
64GGG/	4e-X/	64G\	.	(8gg~\L	.
64GG/	.	64c\	.	.	.
64GGG/	.	64G\	.	.	.
64GG/	.	64c\	.	.	.
64GGG/	.	64G\	.	.	.
64GG/	.	64c\	.	.	.
64GGG/	.	64G\	.	.	.
64GG/	.	64c\	.	.	.
64GGG/	.	64G\	.	8aa~\J)	[[
64GG/	.	64c\	.	.	.
64GGG/	.	64G\	.	.	.
64GG/	.	64c\	.	.	.
64GGG/	.	64G\	.	.	.
64GG/	.	64c\	.	.	.
64GGG/	.	64G\	.	.	.
64GG/JJJJ	.	64c\JJJJ	.	.	.
=206	=206	=206	=206	=206	=206
64GGG/LLLL	4d/)	64G\LLLL	>	2bb\	>
64GG/	.	64B\	.	.	.
64GGG/	.	64G\	.	.	.
64GG/	.	64B\	.	.	.
64GGG/	.	64G\	.	.	.
64GG/	.	64B\	.	.	.
64GGG/	.	64G\	.	.	.
64GG/	.	64B\	.	.	.
64GGG/	.	64G\	.	.	.
64GG/	.	64B\	.	.	.
64GGG/	.	64G\	.	.	.
64GG/	.	64B\	.	.	.
64GGG/	.	64G\	.	.	.
64GG/	.	64B\	.	.	.
64GGG/	.	64G\	.	.	.
64GG/	.	64B\	.	.	.
64GGG/	4r	64G\	.	.	.
64GG/	.	64B\	.	.	.
64GGG/	.	64G\	.	.	.
64GG/	.	64B\	.	.	.
64GGG/	.	64G\	.	.	.
64GG/	.	64B\	.	.	.
64GGG/	.	64G\	.	.	.
64GG/	.	64B\	.	.	.
64GGG/	.	64G\	]	.	]
64GG/	.	64B\	.	.	.
64GGG/	.	64G\	.	.	.
64GG/	.	64B\	.	.	.
64GGG/	.	64G\	.	.	.
64GG/	.	64B\	.	.	.
64GGG/	.	64G\	.	.	.
64GG/JJJJ	.	64B\JJJJ	.	.	.
*	*	*xywh-12:243,245,2457,886	*	*	*
*	*v	*v	*	*	*
=207	=207	=207	=207	=207
64CCC#X/LLLL	(64B-XLLLL 64G/	<	(4bb-X\	<
64CC#X/	64e/	.	.	.
64CCC#X/	64B- 64G/	.	.	.
64CC#X/	64e/	.	.	.
64CCC#X/	64B- 64G/	.	.	.
64CC#X/	64e/	.	.	.
64CCC#X/	64B- 64G/	.	.	.
64CC#X/	64e/	.	.	.
64CCC#X/	64B- 64G/	.	.	.
64CC#X/	64e/	.	.	.
64CCC#X/	64B- 64G/	.	.	.
64CC#X/	64e/	.	.	.
64CCC#X/	64B- 64G/	.	.	.
64CC#X/	64e/	.	.	.
64CCC#X/	64B- 64G/	.	.	.
64CC#X/	64e/	.	.	.
64CCC#X/	64B- 64G/	.	(8gg\L	.
64CC#X/	64e/	.	.	.
64CCC#X/	64B- 64G/	.	.	.
64CC#X/	64e/	.	.	.
64CCC#X/	64B- 64G/	.	.	.
64CC#X/	64e/	.	.	.
64CCC#X/	64B- 64G/	.	.	.
64CC#X/	64e/	.	.	.
64CCC#X/	64B- 64G/	[	8ee\J))	[
64CC#X/	64e/	.	.	.
64CCC#X/	64B- 64G/	.	.	.
64CC#X/	64e/	.	.	.
64CCC#X/	64B- 64G/	.	.	.
64CC#X/	64e/	.	.	.
64CCC#X/	64B- 64G/	.	.	.
64CC#X/JJJJ	64e/JJJJ	.	.	.
=208	=208	=208	=208	=208
*	*^	*	*	*
*	*	*xywh-12:243,245,2457,886	*xywh-12:243,245,2457,886	*	*
64DDD/LLLL	64BnLLLL 64G/	4r	>	4dd\	>
64DD/	64d/	.	.	.	.
64DDD/	64Bn 64G/	.	.	.	.
64DD/	64d/	.	.	.	.
64DDD/	64Bn 64G/	.	.	.	.
64DD/	64d/	.	.	.	.
64DDD/	64Bn 64G/	.	.	.	.
64DD/	64d/	.	.	.	.
64DDD/	64Bn 64G/	.	.	.	]
64DD/	64d/	.	.	.	.
64DDD/	64Bn 64G/	.	.	.	.
64DD/	64d/	.	.	.	.
64DDD/	64Bn 64G/	.	.	.	.
64DD/	64d/	.	.	.	.
64DDD/	64Bn 64G/	.	.	.	.
64DD/	64d/JJJJ)	.	.	.	.
64DDD/	([4g/	64r	]	(16dd\LL	<
*	*	*Xtremolo	*	*	*
64DD/	.	64d\LLLL	.	.	.
64DDD/	.	64B\	.	.	.
64DD/	.	64d\	.	.	.
64DDD/	.	64B\	.	16dd#X\	.
64DD/	.	64d\	.	.	.
64DDD/	.	64B\	.	.	.
64DD/	.	64d\	.	.	.
*	*	*	*	*Xbrackettup	*
64DDD/	.	64B\	.	24ff#\	.
64DD/	.	64d\	.	.	.
64DDD/	.	64B\	.	.	.
.	.	.	.	24ee\	.
64DD/	.	64d\	.	.	.
64DDD/	.	64B\	.	.	.
64DD/	.	64d\	.	.	.
.	.	.	.	24ddn\JJ)	[[
64DDD/	.	64B\	.	.	.
64DD/JJJJ	.	64d\JJJJ	.	.	.
!!LO:LB:g=original
*	*	*xywh-12:243,245,2457,886	*	*	*
*xywh-12:243,1112,2438,861	*xywh-12:243,1112,2438,861	*xywh-12:243,1112,2438,861	*xywh-12:243,1112,2438,861	*xywh-12:243,1112,2438,861	*
=209	=209	=209	=209	=209	=209
*	*	*tremolo	*	*	*
64DDD/LLLL	4g/]	64A\LLLL	>	(4.dd\	>
64DD/	.	64d\	.	.	.
64DDD/	.	64A\	.	.	.
64DD/	.	64d\	.	.	.
64DDD/	.	64A\	.	.	.
64DD/	.	64d\	.	.	.
64DDD/	.	64A\	.	.	.
64DD/	.	64d\	.	.	.
64DDD/	.	64A\	.	.	.
64DD/	.	64d\	.	.	.
64DDD/	.	64A\	.	.	.
64DD/	.	64d\	.	.	.
64DDD/	.	64A\	.	.	.
64DD/	.	64d\	.	.	.
64DDD/	.	64A\	.	.	.
64DD/	.	64d\	.	.	.
64DDD/	4f#/	64A\	.	.	.
64DD/	.	64d\	.	.	.
64DDD/	.	64A\	.	.	.
64DD/	.	64d\	.	.	.
64DDD/	.	64A\	.	.	.
64DD/	.	64d\	.	.	.
64DDD/	.	64A\	.	.	.
64DD/	.	64d\	.	.	.
64DDD/	.	64A\	.	8cc\)	.
64DD/	.	64d\	.	.	.
64DDD/	.	64A\	.	.	.
64DD/	.	64d\	.	.	.
64DDD/	.	64A\	.	.	.
64DD/	.	64d\	.	.	.
64DDD/	.	64A\	.	.	.
64DD/JJJJ	.	64d\JJJJ	.	.	.
=210	=210	=210	=210	=210	=210
64GGG/LLLL	2g/)	64B\LLLL	.	2b\	]]
64DD/	.	64d\	.	.	.
64GGG/	.	64B\	.	.	.
64DD/	.	64d\	.	.	.
64GGG/	.	64B\	.	.	.
64DD/	.	64d\	.	.	.
64GGG/	.	64B\	.	.	.
64DD/	.	64d\	.	.	.
64GGG/	.	64B\	.	.	.
64DD/	.	64d\	.	.	.
64GGG/	.	64B\	.	.	.
64DD/	.	64d\	.	.	.
64GGG/	.	64B\	.	.	.
64DD/	.	64d\	.	.	.
64GGG/	.	64B\	.	.	.
64DD/	.	64d\	.	.	.
64GGG/	.	64B\	.	.	.
64DD/	.	64d\	.	.	.
64GGG/	.	64B\	.	.	.
64DD/	.	64d\	.	.	.
64GGG/	.	64B\	.	.	.
64DD/	.	64d\	.	.	.
64GGG/	.	64B\	.	.	.
64DD/	.	64d\	.	.	.
64GGG/	.	64B\	.	.	.
64DD/	.	64d\	.	.	.
64GGG/	.	64B\	.	.	.
64DD/	.	64d\	.	.	.
64GGG/	.	64B\	.	.	.
64DD/	.	64d\	.	.	.
64GGG/	.	64B\	.	.	.
64DD/JJJJ	.	64d\JJJJ	]	.	.
=211	=211	=211	=211	=211	=211
!!LO:TX:a:B:t=N
64GGG/LLLL	(2g/	64B\LLLL	<	4g 4G/	<
64GG/	.	64d\	.	.	.
64GGG/	.	64B\	.	.	.
64GG/	.	64d\	.	.	.
64GGG/	.	64B\	.	.	.
64GG/	.	64d\	.	.	.
64GGG/	.	64B\	.	.	.
64GG/	.	64d\	.	.	.
64GGG/	.	64B\	.	.	.
64GG/	.	64d\	.	.	.
64GGG/	.	64B\	.	.	.
64GG/	.	64d\	.	.	.
64GGG/	.	64B\	.	.	.
64GG/	.	64d\	.	.	.
64GGG/	.	64B\	.	.	.
64GG/	.	64d\	.	.	.
64GGG/	.	64B\	.	4b 4G/	.
64GG/	.	64d\	.	.	.
64GGG/	.	64B\	.	.	.
64GG/	.	64d\	.	.	.
64GGG/	.	64B\	.	.	.
64GG/	.	64d\	.	.	.
64GGG/	.	64B\	.	.	.
64GG/	.	64d\	.	.	.
64GGG/	.	64B\	.	.	.
64GG/	.	64d\	.	.	.
64GGG/	.	64B\	.	.	.
64GG/	.	64d\	.	.	.
64GGG/	.	64B\	.	.	.
64GG/	.	64d\	.	.	.
64GGG/	.	64B\	.	.	.
64GG/JJJJ	.	64d\JJJJ	.	.	[
=212	=212	=212	=212	=212	=212
64GGG/LLLL	4f#/	64A\LLLL	.	4dd 4G/	>
64GG/	.	64c\	.	.	.
64GGG/	.	64A\	.	.	.
64GG/	.	64c\	.	.	.
64GGG/	.	64A\	[	.	.
64GG/	.	64c\	.	.	.
64GGG/	.	64A\	.	.	.
64GG/	.	64c\	.	.	.
64GGG/	.	64A\	.	.	.
64GG/	.	64c\	.	.	.
64GGG/	.	64A\	.	.	.
64GG/	.	64c\	.	.	.
64GGG/	.	64A\	.	.	.
64GG/	.	64c\	.	.	.
64GGG/	.	64A\	.	.	.
64GG/	.	64c\JJJJ	.	.	]
64GGG/	4fn/	64G\LLLL	.	(>16ccLL 16G/	<
64GG/	.	64d\	.	.	.
64GGG/	.	64G\	.	.	.
64GG/	.	64d\	.	.	.
64GGG/	.	64G\	.	16b 16G/	.
64GG/	.	64d\	.	.	.
64GGG/	.	64G\	.	.	.
64GG/	.	64d\	.	.	.
64GGG/	.	64G\	.	16a 16G/	.
64GG/	.	64d\	.	.	.
64GGG/	.	64G\	.	.	.
64GG/	.	64d\	.	.	.
64GGG/	.	64G\	.	16gJJ 16G/)	.
64GG/	.	64d\	.	.	.
64GGG/	.	64G\	.	.	.
64GG/JJJJ	.	64d\JJJJ	.	.	.
=213	=213	=213	=213	=213	=213
64GGG/LLLL	4e/	64G\LLLL	.	(>8.ggL 8.GSSs/	.
64GG/	.	64c\	.	.	.
64GGG/	.	64G\	.	.	.
64GG/	.	64c\	.	.	.
64GGG/	.	64G\	.	.	.
64GG/	.	64c\	.	.	.
64GGG/	.	64G\	.	.	.
64GG/	.	64c\	.	.	.
64GGG/	.	64G\	.	.	.
64GG/	.	64c\	.	.	.
64GGG/	.	64G\	.	.	.
64GG/	.	64c\	.	.	.
64GGG/	.	64G\	.	16ff#Jk 16G/)	.
64GG/	.	64c\	.	.	.
64GGG/	.	64G\	.	.	.
64GG/	.	64c\	.	.	.
64GGG/	4e-X/	64G\	.	8ggL 8G/	.
64GG/	.	64c\	.	.	.
64GGG/	.	64G\	.	.	.
64GG/	.	64c\	.	.	.
64GGG/	.	64G\	.	.	.
64GG/	.	64c\	.	.	.
64GGG/	.	64G\	.	.	.
64GG/	.	64c\	.	.	.
64GGG/	.	64G\	.	8aaJ 8G/	[[
64GG/	.	64c\	.	.	.
64GGG/	.	64G\	.	.	.
64GG/	.	64c\	.	.	.
64GGG/	.	64G\	.	.	.
64GG/	.	64c\	.	.	.
64GGG/	.	64G\	.	.	.
64GG/JJJJ	.	64c\JJJJ	.	.	.
=214	=214	=214	=214	=214	=214
64GGG/LLLL	2d/)	64G\LLLL	>	2bb 2G/	>
64GG/	.	64B\	.	.	.
64GGG/	.	64G\	.	.	.
64GG/	.	64B\	.	.	.
64GGG/	.	64G\	.	.	.
64GG/	.	64B\	.	.	.
64GGG/	.	64G\	.	.	.
64GG/	.	64B\	.	.	.
64GGG/	.	64G\	.	.	.
64GG/	.	64B\	.	.	.
64GGG/	.	64G\	.	.	.
64GG/	.	64B\	.	.	.
64GGG/	.	64G\	.	.	.
64GG/	.	64B\	.	.	.
64GGG/	.	64G\	.	.	.
64GG/	.	64B\	.	.	.
64GGG/	.	64G\	.	.	.
64GG/	.	64B\	.	.	.
64GGG/	.	64G\	.	.	.
64GG/	.	64B\	.	.	.
64GGG/	.	64G\	.	.	.
64GG/	.	64B\	.	.	.
64GGG/	.	64G\	.	.	.
64GG/	.	64B\	]	.	.
64GGG/	.	64G\	.	.	.
64GG/	.	64B\	.	.	.
64GGG/	.	64G\	.	.	.
64GG/	.	64B\	.	.	.
64GGG/	.	64G\	.	.	.
64GG/	.	64B\	.	.	.
64GGG/	.	64G\	.	.	.
64GG/JJJJ	.	64B\JJJJ	.	.	]
*	*v	*v	*	*	*
=215	=215	=215	=215	=215
!LO:TX:a:i:t=poco più lento	!	!	!LO:TX:b:i:t=poco più lento	!
!!LO:TX:a:i:t=:mod=appasionato
!	!	!	!LO:TX:a:i:t=appassipnato:mod=	!
64CCC#X/LLLL	(>64B-XLLLL 64G/	<	8bb-XL 8b-X\	<
64CC#X/	64e/	.	.	.
64CCC#/	64B- 64G/	.	.	.
64CC#X/	64e/	.	.	.
64CCC#X/	64B- 64G/	.	.	.
64CC#X/	64e/	.	.	.
64CCC#X/	64B- 64G/	.	.	.
64CC#X/	64e/	.	.	.
64CCC#X/	64B- 64G/	.	8.bbb-XJ 8.bb-\	.
64CC#X/	64e/	.	.	.
64CCC#X/	64B- 64G/	.	.	.
64CC#X/	64e/	.	.	.
64CCC#X/	64B- 64G/	.	.	.
64CC#X/	64e/	.	.	.
64CCC#X/	64B- 64G/	.	.	.
64CC#X/	64e/	.	.	.
64CCC#X/	64B- 64G/	.	.	.
64CC#X/	64e/	.	.	.
64CCC#X/	64B- 64G/	.	.	.
64CC#X/	64e/	.	.	.
64CCC#X/	64B- 64G/	[	16gggLL 16gg\	.
64CC#X/	64e/	.	.	.
64CCC#X/	64B- 64G/	.	.	.
64CC#X/	64e/	.	.	.
64CCC#X/	64B- 64G/	.	(16eee 16ee\	.
64CC#X/	64e/	.	.	.
64CCC#X/	64B- 64G/	.	.	.
64CC#X/	64e/	.	.	.
64CCC#X/	64B- 64G/	.	16ccc#XJJ 16cc#X\)	[[
64CC#X/	64e/	.	.	.
64CCC#X/	64B- 64G/	.	.	.
64CC#X/JJJJ	64e/JJJJ	.	.	.
=216	=216	=216	=216	=216
64DDD/LLLL	64BnLLLL 64G/	>	(8dddL 8dd^<\	.
64DD/	64d/	.	.	.
64DDD/	64B 64G/	.	.	.
64DD/	64d/	.	.	.
64DDD/	64B 64G/	.	.	.
64DD/	64d/	.	.	.
64DDD/	64B 64G/	.	.	.
64DD/	64d/	.	.	.
64DDD/	64B 64G/	.	[8eeeJ [8ee\	.
64DD/	64d/	.	.	.
64DDD/	64B 64G/	.	.	.
64DD/	64d/	.	.	.
64DDD/	64B 64G/	.	.	.
64DD/	64d/	.	.	.
64DDD/	64B 64G/	.	.	.
64DD/	64d/JJJJ)	]	.	.
64DDD/	64dLLLL 64B/	.	32eee]LLL 32ee\])	.
64DD/	64g/	.	.	.
64DDD/	64d 64B/	.	(32ddd 32dd\	.
64DD/	64g/	.	.	.
64DDD/	64d 64B/	.	32ccc 32cc\	.
64DD/	64g/	.	.	.
64DDD/	64d 64B/	.	32bb 32b\	.
64DD/	64g/	.	.	.
64DDD/	64d 64B/	.	32aa 32a\	.
64DD/	64g/	.	.	.
64DDD/	64d 64B/	.	32gg 32g\	.
64DD/	64g/	.	.	.
64DDD/	64d 64B/	.	32ff# 32f#\	.
64DD/	64g/	.	.	.
64DDD/	64d 64B/	.	32eeJJJ 32e\)	.
64DD/JJJJ	64g/JJJJ	.	.	.
!!LO:LB:g=original
*xywh-12:275,1954,2407,766	*xywh-12:275,1954,2407,766	*	*xywh-12:275,1954,2407,766	*
=217	=217	=217	=217	=217
!!LO:TX:a:i:t=:mod=animato
!	!	!	!LO:TX:a:i:t=animato:mod=	!
64DDD/LLLL	64cLLLL 64A/	.	(32ddLLL 32d\	.
64DD/	64f# 64d/	.	.	.
64DDD/	64c 64A/	.	32ee-XJ 32e-X\	.
64DD/	64f# 64d/	.	.	.
64DDD/	64c 64A/	.	[16eenJJ [16en\	.
64DD/	64f# 64d/	.	.	.
64DDD/	64c 64A/	.	.	.
64DD/	64f# 64d/	.	.	.
64DDD/	64c 64A/	.	32ee]LLL 32e\])	.
64DD/	64f# 64d/	.	.	.
64DDD/	64c 64A/	.	(32ffnJ 32fn\	.
64DD/	64f# 64d/	.	.	.
64DDD/	64c 64A/	.	[16ff#XJJ [16f#X\	.
64DD/	64f# 64d/	.	.	.
64DDD/	64c 64A/	.	.	.
64DD/	64f# 64d/	.	.	.
64DDD/	64c 64A/	.	32ff#]LLL 32f#\])	.
64DD/	64f# 64d/	.	.	.
64DDD/	64c 64A/	.	(32ggJ 32g\	.
64DD/	64f# 64d/	.	.	.
64DDD/	64c 64A/	.	[16gg#XJJ [16g#X\	.
64DD/	64f# 64d/	.	.	.
64DDD/	64c 64A/	.	.	.
64DD/	64f# 64d/	.	.	.
64DDD/	64c 64A/	.	32gg#]LLL 32g#\])	.
64DD/	64f# 64d/	.	.	.
64DDD/	64c 64A/	.	(32aaJ 32a\	.
64DD/	64f# 64d/	.	.	.
64DDD/	64c 64A/	.	16aa#XJJ 16a#X\)	.
64DD/	64f# 64d/	.	.	.
64DDD/	64c 64A/	.	.	.
64DD/JJJJ	64f#JJJJ 64d/	.	.	.
=218	=218	=218	=218	=218
64DDD/LLLL	64cLLLL 64A/	.	((64a#X\LLLL	.
64DD/	64f# 64d/	.	64aa#X\)	.
64DDD/	64c 64A/	.	(64b\	.
64DD/	64f# 64d/	.	64bb\))	.
64DDD/	64c 64A/	.	(64cc\	.
64DD/	64f# 64d/	.	64ccc\)	.
64DDD/	64c 64A/	.	(64cc#X\	.
64DD/	64f# 64d/	.	64ccc#X\)	.
64DDD/	64c 64A/	.	(64dd\	.
64DD/	64f# 64d/	.	64ddd\)	.
64DDD/	64c 64A/	.	(64dd#X\	.
64DD/	64f# 64d/	.	64ddd#X\)	.
64DDD/	64c 64A/	.	(64ee\	.
64DD/	64f# 64d/	.	64eee\)	.
64DDD/	64c 64A/	.	(64ffn\	.
64DD/	64f# 64d/	.	64fffn\JJJJ)	.
64DDD/	64c 64A/	.	(64ff#X\LLLL	.
64DD/	64f# 64d/	.	64fff#X\)	.
64DDD/	64c 64A/	.	(64gg\	.
64DD/	64f# 64d/	.	64ggg\)	.
64DDD/	64c 64A/	.	(64gg#X\	.
64DD/	64f# 64d/	.	64ggg#X\)	.
64DDD/	64c 64A/	.	(64aan\	.
64DD/	64f# 64d/	.	64aaan\)	.
64DDD/	64c 64A/	.	(64aa#X\	.
64DD/	64f# 64d/	.	64aaa#X\)	.
64DDD/	64c 64A/	.	(64bb\	.
64DD/	64f# 64d/	.	64bbb\)	.
64DDD/	64c 64A/	.	(64bb#X\	.
64DD/	64f# 64d/	.	64bbb#X\)	.
64DDD/	64c 64A/	.	(64ccc#X\	.
64DD/JJJJ	64f#JJJJ 64d/	.	64cccc#X\JJJJ)	.
=219	=219	=219	=219	=219
64DDD/LLLL	64cLLLL 64A/	.	16dddd 16ddd\	.
64DD/	64f# 64d/	.	.	.
64DDD/	64c 64A/	.	.	.
64DD/	64f# 64d/	.	.	.
64DDD/	64c 64A/	.	(16dM/	.
64DD/	64f# 64d/	.	.	.
64DDD/	64c 64A/	.	.	.
64DD/	64f# 64d/	.	.	.
.	.	.	16qqc#X/LL	.
.	.	.	16qqd/JJ)	.
64DDD/	64c 64A/	.	(8ee;\	.
64DD/	64f# 64d/	.	.	.
64DDD/	64c 64A/	.	.	.
64DD/	64f# 64d/	.	.	.
64DDD/	64c 64A/	.	.	.
64DD/	64f# 64d/	.	.	.
64DDD/	64c 64A/	.	.	.
64DD/	64f#JJJJ 64d/	.	.	.
.	.	.	8qqee/L)	.
.	.	.	(8qqdd/	.
.	.	.	8qqccn/	.
.	.	.	8qqa/	.
.	.	.	8qqf#/	.
.	.	.	8qqd/	.
.	.	.	8qqcn/	.
.	.	.	8qqA/J)	.
64DDD/	64dLLLL 64c/	.	(8.c;/L	>
64DD/	64f#/	.	.	.
64DDD/	64d 64c/	.	.	.
64DD/	64f#/	.	.	.
64DDD/	64d 64c/	.	.	.
64DD/	64f#/	.	.	.
64DDD/	64d 64c/	.	.	.
64DD/	64f#/	.	.	.
64DDD/	64d 64c/	.	.	.
64DD/	64f#/	.	.	.
64DDD/	64d 64c/	.	.	.
64DD/	64f#/	.	.	.
64DDD/	64d 64c/	.	16B/Jk)	.
64DD/	64f#/	.	.	.
64DDD/	64d 64c/	.	.	.
64DD/JJJJ	64f#/JJJJ	.	.	.
!!LO:LB:g=original
*xywh-12:269,2684,2445,924	*xywh-12:269,2684,2445,924	*	*xywh-12:269,2684,2445,924	*
=220||	=220||	=220||	=220||	=220||
*M4/4	*M4/4	*	*M4/4	*
*met(c)	*met(c)	*	*met(c)	*
*mmet(c)	*mmet(c)	*	*mmet(c)	*
!!LO:TX:a:B:t=:mod=Largo.
!	!	!	!LO:TX:a:B:t=Largo.:mod=	!
64GGG/LLLL	64dLLLL 64B/	.	([8G/L	.
64DD/	64g/	.	.	.
64GGG/	64d 64B/	.	.	.
64DD/	64g/	.	.	.
64GGG/	64d 64B/	.	.	]
64DD/	64g/	.	.	.
64GGG/	64d 64B/	.	.	.
64DD/	64g/	.	.	.
!	!	!	!LO:TUP:b	!
64GGG/	64d 64B/	.	24G/L]	.
64DD/	64g/	.	.	.
64GGG/	64d 64B/	.	.	.
.	.	.	24B/	.
64DD/	64g/	.	.	.
64GGG/	64d 64B/	.	.	.
64DD/	64g/	.	.	.
.	.	.	24d/JJ	.
64GGG/	64d 64B/	.	.	.
64DD/	64g/	.	.	.
*	*	*	*Xtuplet	*
64GGG/	64d 64B/	.	24g\LL	.
64DD/	64g/	.	.	.
64GGG/	64d 64B/	.	.	.
.	.	.	24b\	.
64DD/	64g/	.	.	.
64GGG/	64d 64B/	.	.	.
64DD/	64g/	.	.	.
.	.	.	24dd\	.
64GGG/	64d 64B/	.	.	.
64DD/	64g/	.	.	.
64GGG/	64d 64B/	.	24gg\)	.
64DD/	64g/	.	.	.
64GGG/	64d 64B/	.	.	.
.	.	.	24bb`\	.
64DD/	64g/	.	.	.
64GGG/	64d 64B/	.	.	.
64DD/	64g/	.	.	.
.	.	.	24ddd`\JJ	.
64GGG/	64d 64B/	.	.	.
64DD/JJJJ	64g/JJJJ	.	.	.
*	*	*	*8va	*
64GGG/LLLL	64dLLLL 64B/	.	24ggg\LL	.
64DD/	64g/	.	.	.
64GGG/	64d 64B/	.	.	.
.	.	.	24ggg#X\	.
64DD/	64g/	.	.	.
64GGG/	64d 64B/	.	.	.
64DD/	64g/	.	.	.
.	.	.	24aaa\	.
64GGG/	64d 64B/	.	.	.
64DD/	64g/	.	.	.
64GGG/	64d 64B/	.	24bbb-X\	.
64DD/	64g/	.	.	.
64GGG/	64d 64B/	.	.	.
.	.	.	24bbbn\	.
64DD/	64g/	.	.	.
64GGG/	64d 64B/	.	.	.
64DD/	64g/	.	.	.
.	.	.	24ccccn\JJ	.
64GGG/	64d 64B/	.	.	.
64DD/	64g/	.	.	.
64GGG/	64d 64B/	.	24cccc#X\LL	.
64DD/	64g/	.	.	.
64GGG/	64d 64B/	.	.	.
.	.	.	24dddd\	.
64DD/	64g/	.	.	.
64GGG/	64d 64B/	.	.	.
64DD/	64g/	.	.	.
.	.	.	24dddd#X\	.
64GGG/	64d 64B/	.	.	.
64DD/	64g/	.	.	.
64GGG/	64d 64B/	.	24eeee\	.
64DD/	64g/	.	.	.
64GGG/	64d 64B/	.	.	.
.	.	.	24ffffn\	.
64DD/	64g/	.	.	.
64GGG/	64d 64B/	.	.	.
64DD/	64g/	.	.	.
.	.	.	24ffff#X\JJ	.
64GGG/	64d 64B/	.	.	.
64DD/JJJJ	64g/JJJJ	.	.	.
*Xtremolo	*Xtremolo	*	*	*
=221	=221	=221	=221	=221
2.DD 2.GGG;/	2.g 2.d 2.B;/	.	2.ggggT;\	.
*	*	*	*X8va	*
4r	4r	.	4r	.
=222||	=222||	=222||	=222||	=222||
*M2/4	*M2/4	*	*M2/4	*
!!LO:TX:a:B:t=:mod=Presto.
!	!	!	!LO:TX:a:B:t=Presto.:mod=	!
!!LO:TX:a:B:t=:mod=Coda.
!	!	!	!LO:TX:a:B:t=Coda.:mod=	!
8r	8r	.	8r	.
8cL 8A 8D\	8ddL 8a 8f# 8d'>/	ff	8ff#L 8a 8d'\	fff
8B 8G\	8dd 8b 8g 8d'>/	.	8gg 8b 8d'\	.
8cJ 8A 8D\	8ddJ 8a 8f# 8d'>/	.	8ff#J 8a 8d'\	.
=223	=223	=223	=223	=223
8B 8G\	8dd 8b 8g 8d`>/	.	8ggL 8b 8d`\	.
8DL 8DD/	8ddL 8a 8f# 8d'>/	.	8aa 8dd 8d'\	.
8GG 8GGG/	8dd 8b 8g 8d'>/	.	8bb 8gg 8d'\	.
8DJ 8DD/	8ddJ 8a 8f# 8d'>/	.	8dddJ 8ff# 8d'\	.
=224	=224	=224	=224	=224
8GG 8GGG/	8gg 8dd 8b 8g`\	.	8gg 8b 8d 8G`>/	.
8r	8r	.	8r	.
8g 8d 8B 8G\	8bb 8gg 8dd 8b`\	.	8gggg 8gg 8b 8d 8G`>/	.
8r	8r	.	8r	.
=225	=225	=225	=225	=225
8G 8D 8BB 8GG/	8ggg 8ddd 8bb 8gg`\	.	8gg 8b 8d 8G`>/	.
8r	8r	.	8r	.
4r	4r	.	4r	.
==	==	==	==	==
*-	*-	*-	*-	*-
!!!system-decoration: s1{(s2,s3)}
!!!RDF**kern: > = above
!!!RDF**kern: < = below
!!!filter-modern: autostem -r | shed -k -e “s/([^a-gA-Gn#X-])[<>]/$1/g” | shed -e "s/TX(.*):t=P:/tx$1:t=P:/LG" | modori -m 
!!!ENC: Marta Opryszak
!!!END: 2022-05-16
!!!ENC: Marta Lawrence
!!!END: 2022-05-26
!!!ENC-modern: Leszek Kubiak
!!!END-modern: 2022-07-20
!!!ENC-iiif: Konrad Tyszka
!!!END-iiif: 2022-08-25
!!!YEC: Copyright 2022 Narodowy Instytut Fryderyka Chopina (https://polishscores.org)
!!!YEM: License CC-BY-4.0 (https://creativecommons.org/licenses/by/4.0)
